P3
100 100
255
226 174 158  213 174 145  224 162 147  212 157 140  212 157 140  212 157 140
212 157 140  212 157 140  212 157 140  212 157 140  212 157 140  212 157 140
212 157 140  212 157 140  224 162 147  226 174 158  226 174 158  226 174 158
226 174 158  241 186 168  241 186 168  241 186 168  241 186 168  241 186 168
241 186 168  241 186 168  241 186 168  241 186 168  241 197 168  241 197 168
241 197 168  241 195 163  241 195 163  241 195 163  242 198 164  247 200 165
245 205 166  245 205 166  245 205 166  245 205 166  241 197 168  241 197 168
242 198 164  242 198 164  242 198 164  242 198 164  242 198 164  242 198 164
242 198 164  242 198 164  245 205 166  242 198 164  242 198 164  242 198 164
242 198 164  242 198 164  242 198 164  242 198 164  241 199 159  241 199 159
247 198 160  247 198 160  248 200 158  247 198 160  248 200 158  247 198 160
241 199 159  241 199 159  241 199 159  241 199 159  242 198 164  241 199 159
242 198 164  242 198 164  242 198 164  242 198 164  242 198 164  242 198 164
242 198 164  242 198 164  242 198 164  242 198 164  242 198 164  242 198 164
241 197 168  241 197 168  241 197 168  241 197 168  241 197 168  241 197 168
241 197 168  241 197 168  241 195 163  241 192 159  241 192 159  241 183 160
230 186 157  230 186 157  230 186 157  226 174 158
223 175 146  212 157 140  212 157 140  212 157 140  212 157 140  212 157 140
212 157 140  212 157 140  212 157 140  212 157 140  212 157 140  212 157 140
212 157 140  212 157 140  224 162 147  224 162 147  226 174 158  226 174 158
241 183 160  241 186 168  241 186 168  241 186 168  241 186 168  241 186 168
241 186 168  241 186 168  241 186 168  241 186 168  241 197 168  241 197 168
241 197 168  241 195 163  241 197 168  242 198 164  242 198 164  247 200 165
245 205 166  241 197 168  241 197 168  241 197 168  241 197 168  242 198 164
242 198 164  242 198 164  242 198 164  242 198 164  242 198 164  242 198 164
242 198 164  242 198 164  242 198 164  242 198 164  242 198 164  242 198 164
242 198 164  242 198 164  242 198 164  242 198 164  242 198 164  241 199 159
247 198 160  247 198 160  249 197 160  247 198 160  247 198 160  247 198 160
241 199 159  241 199 159  247 198 160  247 198 160  242 198 164  242 198 164
242 198 164  242 198 164  242 198 164  242 198 164  242 198 164  242 198 164
242 198 164  242 198 164  242 198 164  242 198 164  241 195 163  241 195 163
241 195 163  241 197 168  241 197 168  241 197 168  241 197 168  241 197 168
241 197 168  241 195 163  241 192 159  233 193 157  233 185 150  233 185 150
230 186 157  233 185 150  226 174 158  223 175 146
213 174 145  212 157 140  212 157 140  212 157 140  212 157 140  205 150 129
212 157 140  212 157 140  212 157 140  212 157 140  212 157 140  212 157 140
224 162 147  224 162 147  224 162 147  226 174 158  226 174 158  241 183 160
241 183 160  241 186 168  241 186 168  241 186 168  241 186 168  241 186 168
241 186 168  241 186 168  241 186 168  241 186 168  241 197 168  241 197 168
241 197 168  242 198 164  242 198 164  242 198 164  242 198 164  242 198 164
247 200 165  242 198 164  242 198 164  242 198 164  245 205 166  245 205 166
247 200 165  247 200 165  242 198 164  242 198 164  242 198 164  242 198 164
242 198 164  242 198 164  242 198 164  242 198 164  247 200 165  247 200 165
242 198 164  242 198 164  242 198 164  242 198 164  242 198 164  242 198 164
247 200 165  247 200 165  247 200 165  247 200 165  247 198 160  247 198 160
247 198 160  247 200 165  247 200 165  247 200 165  247 200 165  247 200 165
247 200 165  247 200 165  247 200 165  247 200 165  247 200 165  247 200 165
247 200 165  247 200 165  247 200 165  242 198 164  241 195 163  241 195 163
241 195 163  241 195 163  241 195 163  241 195 163  241 195 163  241 195 163
241 195 163  241 192 159  241 192 159  233 193 157  239 189 150  233 185 150
233 185 150  233 185 150  233 185 150  233 185 150
213 174 145  212 157 140  212 157 140  212 157 140  212 157 140  205 150 129
212 157 140  212 157 140  212 157 140  212 157 140  212 157 140  224 162 147
224 162 147  224 162 147  226 174 158  226 174 158  226 174 158  241 183 160
241 186 168  241 186 168  241 186 168  241 186 168  241 186 168  241 186 168
241 186 168  241 186 168  241 186 168  247 190 161  241 195 163  241 195 163
247 200 165  247 200 165  242 198 164  242 198 164  242 198 164  247 200 165
247 200 165  245 205 166  245 205 166  245 205 166  245 205 166  245 205 166
245 205 166  245 205 166  247 200 165  247 200 165  247 200 165  247 200 165
247 200 165  241 199 159  241 199 159  242 198 164  242 198 164  242 198 164
242 198 164  242 198 164  242 198 164  242 198 164  242 198 164  242 198 164
242 198 164  247 200 165  247 200 165  247 200 165  247 200 165  247 198 160
247 200 165  247 200 165  247 200 165  247 200 165  247 200 165  247 200 165
247 200 165  247 200 165  247 200 165  247 200 165  247 200 165  247 200 165
247 200 165  247 200 165  247 200 165  247 200 165  242 198 164  242 198 164
242 198 164  241 195 163  241 195 163  241 195 163  241 195 163  241 195 163
241 192 159  241 192 159  241 192 159  241 192 159  233 193 157  233 193 157
230 186 157  230 186 157  230 186 157  230 186 157
213 174 145  212 157 140  212 157 140  212 157 140  212 157 140  205 150 129
212 157 140  212 157 140  212 157 140  212 157 140  212 157 140  224 162 147
224 162 147  223 175 146  226 174 158  226 174 158  226 174 158  226 174 158
241 183 160  241 183 160  241 183 160  241 186 168  241 186 168  241 186 168
247 190 161  247 190 161  247 190 161  247 190 161  241 195 163  241 195 163
247 200 165  247 200 165  247 200 165  247 200 165  247 200 165  247 200 165
245 205 166  250 206 166  245 205 166  245 205 166  245 205 166  245 205 166
250 206 166  250 206 166  250 206 166  245 205 166  245 205 166  245 205 166
249 204 159  249 204 159  249 204 159  247 200 165  245 205 166  245 205 166
247 200 165  242 198 164  245 205 166  245 205 166  242 198 164  242 198 164
242 198 164  247 200 165  247 200 165  247 200 165  247 200 165  247 200 165
247 200 165  247 200 165  247 200 165  247 200 165  247 198 160  247 198 160
247 198 160  247 198 160  247 198 160  247 198 160  247 198 160  247 198 160
247 200 165  247 200 165  247 200 165  247 200 165  247 200 165  247 200 165
247 200 165  242 198 164  241 195 163  241 192 159  241 195 163  241 195 163
241 195 163  241 192 159  241 192 159  241 192 159  241 192 159  233 193 157
230 186 157  230 186 157  230 186 157  230 186 157
213 174 145  212 157 140  212 157 140  212 157 140  212 157 140  205 150 129
212 157 140  212 157 140  212 157 140  212 157 140  212 157 140  224 162 147
224 162 147  223 175 146  233 171 146  233 171 146  226 174 158  226 174 158
241 183 160  241 183 160  241 183 160  241 183 160  241 186 168  247 190 161
247 190 161  247 190 161  247 190 161  247 190 161  241 195 163  247 198 160
247 198 160  247 198 160  241 199 159  241 199 159  247 200 165  247 200 165
247 200 165  250 206 166  250 206 166  245 205 166  245 205 166  250 206 166
250 206 166  249 212 166  249 212 166  249 212 166  249 212 166  249 212 166
249 212 166  250 206 166  250 206 166  249 212 166  249 212 166  249 212 166
249 212 166  250 206 166  245 205 166  245 205 166  245 205 166  245 205 166
247 200 165  247 200 165  247 200 165  247 200 165  247 200 165  247 200 165
247 200 165  247 198 160  249 197 160  249 197 160  249 197 160  249 197 160
247 198 160  247 198 160  247 198 160  247 198 160  247 198 160  247 198 160
247 198 160  247 198 160  247 198 160  247 198 160  247 200 165  247 200 165
247 200 165  242 198 164  241 195 156  241 195 156  241 192 159  241 192 159
241 192 159  241 192 159  241 192 159  233 193 157  233 193 157  233 193 157
230 186 157  233 185 150  230 186 157  233 185 150
213 174 145  212 157 140  212 157 140  205 150 129  212 157 140  205 150 129
205 150 129  212 157 140  212 157 140  212 157 140  212 157 140  224 162 147
223 175 146  223 175 146  226 174 158  233 171 146  233 185 150  241 183 160
241 183 160  241 183 160  241 183 160  241 183 160  247 190 161  241 192 159
241 192 159  247 190 161  247 198 160  247 198 160  247 198 160  247 198 160
247 198 160  247 198 160  241 199 159  248 200 158  245 205 166  245 205 166
250 206 166  249 212 166  249 211 172  249 211 172  249 211 172  249 211 172
249 211 172  249 211 172  249 211 172  249 211 172  249 211 172  249 211 172
247 219 167  249 212 166  249 212 166  247 219 167  247 219 167  247 219 167
249 212 166  249 212 166  249 212 166  249 212 166  249 211 172  249 212 166
250 206 166  250 206 166  250 206 166  247 200 165  247 200 165  247 198 160
249 197 160  248 200 158  249 197 160  249 204 159  248 200 158  248 200 158
248 200 158  248 200 158  247 198 160  247 198 160  247 198 160  247 198 160
247 198 160  247 198 160  247 198 160  247 198 160  241 199 159  241 199 159
241 199 159  241 199 159  241 195 156  241 195 156  239 189 150  239 189 150
241 192 159  241 192 159  241 192 159  241 192 159  233 193 157  233 193 157
230 186 157  233 185 150  233 185 150  233 185 150
212 157 140  205 150 129  205 150 129  205 150 129  205 150 129  205 150 129
212 157 140  212 157 140  223 164 136  223 164 136  224 162 147  223 175 146
223 175 146  233 185 150  233 185 150  233 185 150  241 183 160  241 183 160
241 183 160  241 183 160  241 183 160  247 190 161  247 190 161  241 192 159
247 190 161  241 195 156  247 198 160  248 200 158  248 200 158  248 200 158
248 200 158  248 200 158  249 204 159  250 206 166  249 212 166  249 212 166
249 212 166  249 211 172  249 211 172  249 211 172  252 220 175  252 220 175
252 220 175  252 220 180  252 220 180  252 220 180  252 220 180  252 220 180
252 220 175  252 220 175  253 226 175  253 226 175  252 220 175  252 220 175
252 220 175  252 220 175  247 219 167  252 220 175  252 220 175  249 211 172
249 212 166  249 212 166  249 212 166  250 206 166  250 206 166  249 204 159
248 200 158  249 204 159  248 200 158  249 204 159  248 200 158  248 200 158
248 200 158  248 200 158  247 198 160  247 198 160  247 198 160  247 198 160
247 198 160  247 198 160  247 198 160  241 199 159  241 199 159  241 199 159
241 199 159  241 195 156  241 195 156  241 195 156  239 189 150  241 195 156
241 192 159  241 192 159  241 192 159  233 193 157  233 193 157  233 193 157
233 193 157  233 185 150  233 185 150  233 185 150
212 157 140  205 150 129  205 150 129  205 150 129  205 150 129  214 152 127
214 152 127  212 157 140  223 164 136  223 164 136  223 175 146  223 175 146
233 185 150  233 185 150  233 185 150  239 189 150  241 183 160  241 192 159
247 190 161  247 190 161  247 190 161  249 197 160  249 197 160  249 197 160
247 198 160  247 198 160  247 198 160  248 200 158  249 204 159  249 204 159
249 204 159  250 206 166  249 212 166  249 212 166  249 212 166  252 220 166
252 220 175  252 220 175  252 220 175  252 220 180  252 226 181  252 226 181
252 226 181  251 230 182  253 233 187  253 233 187  253 233 187  253 233 187
251 230 182  251 230 182  251 230 182  251 230 182  251 230 182  251 230 182
251 230 182  251 230 182  245 226 181  247 220 179  252 220 175  252 220 175
252 220 175  249 211 172  249 211 172  249 212 166  249 212 166  250 206 166
250 206 166  249 204 159  249 204 159  248 200 158  248 200 158  248 200 158
248 200 158  247 197 150  248 200 158  248 200 158  247 198 160  247 198 160
241 199 159  241 199 159  247 200 165  247 198 160  241 199 159  241 195 156
241 195 156  241 195 156  241 195 156  241 195 156  241 195 156  241 195 156
241 195 156  241 195 156  241 192 159  241 192 159  233 193 157  233 193 157
232 191 150  232 191 150  233 185 150  233 185 150
212 157 140  205 150 129  205 150 129  205 150 129  205 150 129  214 152 127
214 152 127  212 157 140  223 164 136  223 164 136  223 175 146  223 175 146
233 185 150  233 185 150  239 189 150  241 192 159  241 192 159  241 192 159
247 190 161  249 197 160  249 197 160  249 197 160  249 197 160  248 200 158
247 198 160  247 198 160  248 200 158  249 204 159  249 204 159  249 210 159
249 212 166  249 212 166  249 212 166  247 219 167  252 220 175  253 226 175
253 226 175  252 226 181  251 230 182  253 233 187  253 233 187  253 233 187
253 233 187  251 237 192  251 237 192  251 237 192  251 237 192  251 237 192
251 237 192  251 237 192  251 237 192  251 237 192  251 237 192  251 237 192
251 237 192  253 233 187  251 230 182  251 230 182  252 226 181  252 226 181
247 220 179  247 220 179  252 220 175  252 220 175  249 211 172  249 212 166
249 212 166  249 210 159  240 207 160  249 204 159  248 200 158  248 200 158
248 200 158  248 200 158  248 200 158  248 200 158  247 198 160  247 198 160
241 199 159  241 199 159  241 199 159  241 199 159  241 199 159  241 199 159
241 199 159  241 195 156  241 195 156  241 195 156  241 195 156  241 195 156
241 195 156  241 195 156  233 193 157  233 193 157  233 193 157  233 193 157
232 191 150  233 185 150  233 185 150  233 185 150
212 157 140  205 150 129  205 150 129  205 150 129  205 150 129  214 152 127
214 152 127  223 164 136  223 164 136  223 175 146  223 175 146  233 185 150
233 185 150  239 189 150  239 189 150  241 195 156  241 195 156  247 198 160
249 197 160  248 200 158  249 197 160  248 200 158  248 200 158  248 200 158
248 200 158  248 200 158  249 204 159  249 212 166  249 212 166  249 212 166
252 220 175  252 220 175  252 220 175  253 226 175  253 226 175  251 230 182
253 233 187  253 233 187  253 233 187  253 234 194  251 237 192  253 237 196
254 243 201  254 243 201  254 243 201  254 243 201  254 243 201  254 243 201
254 243 201  253 247 203  254 243 201  254 243 201  254 243 201  254 243 201
250 243 201  253 237 196  253 237 196  253 237 196  251 237 192  253 230 191
253 230 191  253 230 191  252 226 181  252 226 181  252 220 175  252 220 175
247 219 167  249 212 166  249 212 166  249 210 159  240 207 160  249 204 159
248 200 158  248 200 158  241 199 159  241 199 159  247 198 160  247 198 160
247 198 160  241 199 159  241 195 156  241 199 159  241 199 159  241 199 159
241 199 159  241 199 159  241 195 156  241 195 156  241 195 156  233 193 157
233 193 157  241 195 156  241 195 156  241 195 156  241 195 156  232 191 150
239 189 150  233 185 150  233 185 150  233 185 150
212 157 140  205 150 129  205 150 129  205 150 129  205 150 129  214 152 127
214 152 127  223 164 136  223 175 146  223 175 146  223 175 146  233 185 150
239 189 150  239 189 150  241 195 156  241 195 156  241 195 156  248 200 158
248 200 158  248 200 158  248 200 158  248 200 158  249 204 159  249 204 159
249 204 159  249 212 166  249 212 166  249 212 166  252 220 175  252 220 175
252 220 175  253 226 175  251 230 182  251 230 182  253 233 187  253 233 187
253 234 194  251 237 192  253 237 196  254 243 201  254 243 201  254 243 201
255 246 203  254 248 208  254 248 208  254 248 208  255 250 211  255 250 211
255 250 211  255 250 211  255 250 211  255 250 211  255 250 211  255 250 211
254 248 208  254 248 208  254 248 208  255 246 203  254 243 201  254 243 201
253 237 196  253 234 194  253 230 191  253 230 191  251 230 182  252 226 181
253 226 175  252 220 175  247 219 167  249 212 166  245 205 166  240 207 160
249 204 159  248 200 158  241 199 159  241 199 159  247 198 160  247 198 160
247 198 160  247 198 160  241 199 159  241 199 159  241 199 159  241 195 156
241 195 156  241 195 156  241 195 156  241 195 156  241 195 156  233 193 157
241 195 156  241 195 156  232 191 150  239 189 150  239 189 150  233 185 150
233 185 150  232 188 141  233 185 150  232 188 141
212 157 140  205 150 129  205 150 129  205 150 129  214 152 127  214 152 127
223 164 136  223 164 136  223 175 146  233 171 146  233 185 150  233 185 150
239 189 150  239 189 150  241 195 156  241 195 156  248 200 158  248 200 158
248 200 158  248 200 158  249 204 159  249 204 159  249 204 159  249 210 159
249 212 166  249 212 166  247 219 167  252 220 175  252 220 175  252 226 181
251 230 182  251 230 182  251 237 192  251 237 192  253 237 196  254 243 201
254 243 201  255 246 203  255 246 203  254 248 208  254 248 208  254 248 208
255 250 211  255 250 211  254 248 208  254 248 208  255 250 211  255 250 211
255 252 211  255 252 211  255 252 211  255 252 211  255 252 211  255 252 211
255 252 211  255 250 211  255 250 211  255 250 211  255 250 211  254 248 208
254 243 206  254 243 201  254 243 201  253 237 196  251 237 192  251 237 192
251 230 182  245 226 181  245 226 181  252 220 175  249 212 166  249 212 166
240 207 160  249 204 159  241 199 159  241 195 156  241 195 156  241 195 156
241 195 156  241 195 156  241 199 159  241 199 159  241 195 156  241 195 156
241 195 156  241 195 156  241 195 156  241 195 156  241 195 156  233 193 157
241 195 156  233 193 157  232 191 150  241 195 156  249 197 160  249 204 159
249 204 159  248 200 158  241 199 159  241 195 156
214 152 127  205 150 129  205 150 129  205 150 129  214 152 127  214 152 127
223 164 136  223 164 136  223 175 146  237 181 145  233 185 150  239 189 150
239 189 150  241 195 156  241 195 156  247 197 150  247 197 150  247 197 150
248 200 158  248 200 158  249 204 159  249 210 159  250 206 166  249 212 166
249 212 166  247 219 167  252 220 175  253 226 175  251 230 182  251 230 182
253 233 187  251 237 192  253 237 196  254 243 201  254 248 208  254 248 208
255 250 211  255 250 211  255 250 211  255 252 211  255 250 211  254 248 208
254 248 208  254 248 208  253 248 208  253 248 208  254 248 208  255 250 211
255 250 211  255 250 211  255 250 211  255 250 211  255 250 211  255 252 211
255 252 211  255 250 211  255 250 211  255 252 211  255 252 211  255 250 211
255 250 211  254 248 208  254 248 208  255 246 203  254 243 201  250 243 201
251 237 192  253 233 187  251 230 182  251 230 182  252 220 175  249 211 172
249 212 166  249 212 166  249 204 159  248 200 158  248 200 158  241 195 156
241 195 156  241 195 156  241 195 156  241 195 156  241 195 156  247 190 150
247 190 150  247 190 150  241 192 159  233 193 157  233 193 157  232 191 150
232 191 150  241 199 159  249 211 172  249 212 166  249 204 159  248 200 158
247 197 150  239 189 150  232 188 141  232 188 141
214 152 127  205 150 129  205 150 129  214 152 127  214 152 127  223 164 136
223 164 136  223 175 146  223 175 146  237 181 145  233 185 150  239 189 150
239 189 150  241 195 156  241 195 156  248 200 158  247 197 150  239 206 150
248 200 158  249 204 159  249 210 159  249 210 159  249 212 166  252 220 166
252 220 175  252 220 175  252 226 181  251 230 182  253 233 187  251 237 192
253 237 196  254 243 201  252 247 205  255 250 211  255 252 211  255 252 211
255 252 211  255 250 211  255 250 211  255 250 211  251 247 211  253 248 208
253 248 208  253 248 208  254 248 208  254 248 208  254 248 208  254 248 208
254 248 208  255 246 203  255 246 203  252 247 205  252 247 205  252 247 205
252 247 205  253 248 208  253 248 208  253 248 208  253 248 208  255 250 211
255 250 211  255 250 211  255 250 211  254 248 208  255 250 211  253 248 208
254 243 201  253 237 196  253 237 196  253 234 194  252 226 181  252 220 175
249 211 172  249 212 166  250 206 166  249 204 159  248 200 158  248 200 158
241 195 156  241 195 156  239 189 150  239 189 150  239 189 150  239 189 150
239 189 150  239 189 150  239 189 150  233 185 150  223 187 146  241 199 159
252 220 175  252 220 175  250 206 166  247 190 150  244 187 141  244 187 141
236 181 132  238 178 122  232 165 122  232 165 122
214 152 127  205 150 129  205 150 129  214 152 127  214 152 127  223 164 136
223 164 136  223 175 146  233 171 146  233 185 150  239 189 150  239 189 150
241 195 156  241 195 156  247 197 150  247 197 150  247 197 150  239 206 150
249 204 159  249 210 159  249 210 159  249 212 166  252 220 166  252 220 175
253 226 175  251 230 182  251 230 182  252 237 187  251 237 192  254 243 201
255 246 203  254 248 208  255 250 211  255 252 211  255 252 211  255 252 211
255 250 211  255 250 211  255 250 211  255 252 211  253 248 208  253 248 208
254 248 208  254 248 208  254 243 206  255 246 203  254 243 201  254 243 201
255 246 203  255 246 203  254 243 201  254 243 201  254 243 201  254 243 201
250 243 201  250 243 201  250 243 201  252 247 205  252 247 205  253 248 208
253 248 208  253 248 208  255 250 211  255 250 211  255 252 211  255 250 211
253 248 208  255 246 203  254 243 201  253 237 196  253 230 191  247 220 179
240 210 173  245 205 166  245 205 166  249 204 159  241 199 159  241 195 156
241 195 156  241 195 156  239 189 150  239 189 150  239 189 150  239 189 150
239 189 150  237 181 145  233 185 150  223 187 146  252 220 175  252 226 181
249 212 166  235 197 150  239 189 150  244 187 141  244 187 141  236 181 132
238 178 122  240 168 122  236 175 114  231 160 111
214 152 127  205 150 129  214 152 127  214 152 127  223 164 136  223 164 136
223 164 136  233 171 146  237 181 145  237 181 145  241 195 156  239 189 150
239 189 150  248 200 158  241 199 159  248 200 158  247 197 150  248 200 158
249 210 159  249 210 159  249 212 166  252 220 166  252 220 175  253 226 175
251 230 182  253 233 187  251 237 192  250 243 201  253 247 203  253 248 208
255 250 211  255 252 211  255 252 211  255 252 211  255 250 211  255 250 211
254 248 208  254 248 208  253 248 208  253 248 208  254 248 208  254 243 206
254 243 206  254 243 201  254 243 201  254 243 201  254 243 201  254 243 201
250 245 198  250 245 198  250 245 198  250 245 198  250 245 198  250 245 198
250 245 198  250 245 198  250 245 198  254 243 201  254 243 201  253 247 203
254 243 206  253 248 208  255 250 211  255 250 211  255 250 211  255 250 211
255 250 211  255 252 211  255 250 211  254 243 206  253 237 196  251 230 182
252 226 181  247 220 179  240 210 173  240 207 160  241 199 159  241 199 159
241 195 156  241 195 156  241 195 156  239 189 150  239 189 150  247 190 150
239 189 150  223 175 146  233 193 157  252 226 181  253 233 187  249 204 159
247 197 150  244 187 141  244 187 141  244 187 141  236 181 132  238 178 122
240 168 122  239 161 110  231 160 111  231 160 111
205 150 129  205 150 129  214 152 127  214 152 127  214 152 127  223 164 136
223 164 136  223 175 146  233 185 150  233 185 150  233 185 150  247 190 150
241 195 156  247 197 150  247 197 150  247 197 150  247 197 150  249 204 159
249 210 159  249 212 166  247 219 167  252 220 175  252 226 181  251 230 182
251 237 192  251 237 192  250 243 201  252 247 205  253 248 208  255 252 211
255 252 211  255 252 211  255 252 211  255 252 211  255 250 211  254 248 208
254 248 208  254 250 202  255 246 203  253 247 203  254 243 201  254 243 201
254 243 201  253 237 196  253 237 196  253 237 196  251 237 192  251 237 192
251 237 192  251 237 192  251 237 192  251 237 192  251 237 192  251 237 192
251 237 192  251 237 192  251 237 192  251 237 192  253 237 196  254 243 201
254 243 201  254 243 206  254 248 208  254 248 208  255 250 211  255 250 211
255 250 211  255 250 211  255 250 211  255 250 211  255 246 203  253 237 196
253 230 191  252 226 181  247 220 179  252 220 175  249 211 172  245 205 166
241 199 159  241 199 159  241 195 156  239 189 150  239 189 150  239 189 150
223 175 146  241 195 156  252 226 181  251 230 182  241 199 159  239 189 150
247 197 150  244 187 141  244 187 141  236 181 132  238 178 122  240 168 122
239 161 110  239 161 110  231 160 111  231 160 111
232 165 122  224 154 125  232 165 122  223 164 136  237 181 145  239 189 150
232 188 141  223 182 134  223 175 146  232 191 150  241 195 156  239 189 150
239 189 150  247 190 150  247 197 150  248 200 158  248 200 158  249 210 159
249 212 166  247 219 167  252 220 175  252 226 181  253 230 191  253 237 196
254 243 201  253 247 203  252 247 205  255 252 211  255 252 211  255 252 211
255 252 211  254 248 208  254 248 208  254 248 208  254 248 208  253 247 203
253 247 203  255 246 203  254 243 201  254 243 201  250 245 198  253 237 196
251 237 192  251 237 192  251 237 192  252 237 187  252 237 187  251 236 182
251 236 182  253 233 187  253 233 187  253 233 187  253 233 187  253 233 187
251 236 182  251 236 182  253 233 187  252 237 187  251 237 192  251 237 192
253 237 196  253 237 196  254 243 201  254 243 201  254 248 208  254 248 208
254 243 206  252 247 205  254 248 208  255 250 211  254 248 208  255 246 203
254 243 201  253 237 196  253 230 191  252 226 181  252 220 180  249 211 172
245 205 166  247 200 165  247 198 160  241 195 156  241 195 156  232 191 150
232 191 150  252 220 180  252 226 181  249 204 159  249 197 160  247 190 150
247 190 150  244 187 141  236 181 132  238 178 122  238 178 122  240 168 122
239 161 110  234 158 103  225 150 100  234 158 103
240 168 122  232 165 122  232 165 122  232 165 122  237 171 132  236 181 132
248 200 158  252 220 175  249 204 159  232 191 150  232 191 150  232 191 150
241 195 156  236 198 141  247 197 150  247 197 150  240 207 160  249 210 159
247 219 167  252 220 175  252 226 181  253 230 191  253 237 196  254 243 201
254 248 208  254 248 208  255 252 211  255 252 211  255 252 211  255 252 211
254 248 208  254 248 208  254 248 208  254 248 208  255 246 203  255 246 203
254 243 201  254 243 201  250 245 198  251 237 192  251 237 192  251 237 192
252 237 187  252 237 187  252 237 187  251 236 182  251 236 182  251 236 182
251 236 182  251 230 182  251 230 182  251 230 182  251 230 182  251 230 182
251 230 182  251 230 182  253 233 187  251 236 182  253 233 187  253 233 187
252 237 187  251 237 192  251 237 192  251 237 192  254 243 201  254 243 201
254 243 201  254 243 206  253 248 208  255 250 211  254 248 208  254 248 208
255 246 203  255 246 203  253 237 196  253 230 191  252 226 181  247 220 179
240 210 173  245 205 166  247 200 165  241 195 156  239 189 150  223 187 146
249 212 166  252 237 187  249 212 166  247 190 150  247 197 150  244 187 141
244 187 141  236 181 132  238 178 122  238 178 122  240 168 122  240 168 122
231 160 111  234 158 103  234 158 103  234 158 103
236 175 114  231 160 111  231 160 111  240 168 122  240 168 122  237 171 132
236 181 132  232 188 141  252 220 166  252 220 175  232 191 150  232 191 150
232 191 150  239 206 150  239 206 150  239 206 150  249 210 159  247 219 167
252 220 175  252 226 181  253 233 187  251 237 192  254 243 201  252 247 205
255 250 211  255 250 211  255 250 211  255 252 211  254 248 208  254 248 208
255 250 211  254 248 208  254 248 208  255 246 203  255 246 203  254 243 201
254 243 201  254 243 201  253 237 196  251 237 192  251 237 192  252 237 187
252 237 187  251 236 182  251 236 182  251 236 182  251 236 179  251 230 182
251 230 182  251 230 182  251 230 182  251 230 182  251 230 182  251 230 182
251 230 182  251 230 182  251 230 182  251 230 182  251 230 182  251 236 182
253 233 187  253 233 187  252 237 187  251 237 192  251 237 192  253 237 196
254 243 201  254 243 201  253 247 203  252 247 205  253 248 208  253 248 208
254 248 208  254 248 208  255 246 203  253 237 196  253 230 191  252 226 181
247 220 179  249 211 172  245 205 166  241 195 156  232 191 150  232 191 150
251 230 182  252 226 181  235 197 150  248 200 158  244 187 141  244 187 141
236 181 132  237 171 132  240 168 122  240 168 122  240 168 122  231 160 111
231 160 111  225 162 107  225 150 100  225 150 100
231 160 111  225 162 107  239 161 110  240 168 122  240 168 122  240 168 122
240 168 122  236 181 132  232 188 141  249 210 159  251 230 182  235 197 150
235 197 150  235 197 150  240 207 160  240 207 160  247 219 167  247 219 167
245 226 181  251 230 182  253 234 194  254 243 201  255 246 203  254 248 208
255 252 211  255 250 211  255 250 211  255 250 211  255 250 211  255 250 211
254 248 208  254 248 208  255 246 203  255 246 203  255 246 203  254 243 201
254 243 201  250 245 198  252 237 187  252 237 187  252 237 187  252 237 187
252 237 187  251 236 182  251 236 182  251 236 179  251 236 179  251 236 179
253 226 175  253 226 175  253 226 175  253 226 175  253 226 175  253 226 175
253 226 175  253 226 175  253 226 175  253 226 175  251 230 182  251 230 182
251 230 182  251 236 182  251 236 182  251 236 182  253 233 187  251 237 192
251 237 192  253 237 196  250 243 201  250 243 201  252 247 205  252 247 205
252 247 205  255 252 211  255 250 211  254 243 206  253 237 196  253 234 194
249 225 191  247 220 179  240 210 173  242 198 164  233 193 157  249 211 172
251 237 192  240 207 160  235 197 150  247 197 150  244 187 141  236 181 132
240 168 122  237 171 132  238 178 122  232 165 122  232 165 122  231 160 111
225 154 109  213 158 106  210 155 97  210 155 97
231 160 111  231 160 111  239 161 110  239 161 110  240 168 122  240 168 122
240 168 122  238 178 122  237 171 132  224 179 123  249 210 159  253 226 175
235 197 150  240 207 160  240 207 160  249 212 166  247 219 167  245 227 173
251 230 182  252 237 187  254 243 201  255 246 203  254 248 208  255 250 211
255 252 211  255 252 211  255 250 211  254 248 208  255 250 211  254 248 208
254 248 208  254 248 208  255 246 203  254 250 202  250 245 198  249 245 190
249 245 190  249 245 190  252 237 187  252 237 187  252 237 187  252 237 187
251 236 182  251 236 179  251 236 179  251 236 179  251 236 179  251 232 170
251 232 170  251 232 170  251 232 170  251 232 170  253 226 175  251 232 170
253 226 175  253 226 175  253 226 175  253 226 175  253 226 175  253 226 175
251 230 182  251 230 182  253 226 175  251 230 182  251 230 182  253 233 187
253 233 187  251 237 192  251 237 192  246 237 196  250 243 201  252 247 205
247 247 204  254 248 208  255 250 211  254 248 208  254 243 206  254 243 201
253 230 191  245 226 181  249 211 172  245 205 166  233 193 157  252 226 181
251 230 182  240 207 160  247 197 150  244 187 141  244 187 141  236 181 132
240 168 122  237 171 132  232 165 122  232 165 122  232 165 122  223 169 124
236 181 132  236 198 141  247 197 150  247 197 150
231 160 111  225 162 107  231 160 111  239 161 110  239 161 110  240 168 122
240 168 122  238 178 122  244 187 141  236 181 132  236 181 132  249 212 166
252 220 175  232 203 157  249 212 166  241 220 167  247 220 179  251 230 182
253 233 187  253 237 196  254 243 201  254 248 208  255 250 211  255 252 211
255 252 211  255 250 211  254 248 208  254 248 208  255 246 203  255 246 203
255 246 203  255 246 203  250 245 198  250 245 198  249 245 190  249 245 190
249 245 190  249 245 190  249 245 190  252 237 187  251 236 182  251 236 182
251 236 179  251 236 179  251 236 179  251 236 179  251 236 179  251 232 170
251 232 170  251 232 170  251 232 170  251 232 170  251 232 170  251 232 170
251 232 170  253 226 175  253 226 175  253 226 175  253 226 175  253 226 175
253 226 175  253 226 175  253 226 175  253 226 175  251 230 182  251 230 182
251 230 182  253 233 187  251 237 192  251 237 192  246 237 196  250 243 201
250 243 201  254 243 206  254 248 208  254 248 208  254 248 208  254 243 206
250 243 201  253 230 191  247 220 179  240 210 173  230 204 165  253 233 187
252 220 175  239 206 150  247 197 150  236 181 132  236 181 132  236 181 132
240 168 122  240 168 122  223 169 124  236 181 132  249 204 159  252 220 175
252 220 166  249 204 159  247 197 150  232 188 141
231 160 111  225 154 109  231 160 111  239 161 110  239 161 110  240 168 122
238 178 122  238 178 122  244 187 141  224 179 123  236 181 132  232 188 141
252 220 175  249 211 172  240 210 173  240 219 178  251 230 182  253 233 187
253 234 194  254 243 206  255 250 211  255 250 211  255 250 211  255 250 211
255 252 211  254 248 208  254 250 202  254 250 202  254 250 202  250 245 198
254 250 202  250 245 198  249 245 190  254 250 202  249 245 190  249 245 190
249 245 190  249 245 190  251 236 182  251 236 182  251 236 182  251 236 182
251 236 182  251 236 182  251 236 179  245 227 173  251 236 179  251 232 170
251 232 170  251 232 170  251 232 170  251 232 170  251 232 170  251 232 170
251 232 170  253 226 175  253 226 175  253 226 175  252 226 181  251 230 182
253 226 175  253 226 175  245 227 173  253 226 175  251 230 182  251 230 182
252 226 181  251 230 182  251 230 182  251 237 192  251 237 192  253 237 196
246 237 196  254 243 201  254 243 206  254 243 206  254 248 208  254 248 208
254 243 206  253 237 196  249 225 191  240 219 178  240 210 173  253 237 196
249 212 166  249 204 159  236 198 141  236 181 132  236 181 132  232 165 122
223 169 124  224 179 123  247 197 150  253 226 175  250 211 150  224 179 123
213 158 106  210 155 97  214 148 86  214 148 86
231 160 111  225 162 107  231 160 111  231 160 111  232 165 122  240 168 122
232 165 122  224 179 123  247 197 150  247 197 150  232 188 141  232 188 141
250 206 166  253 233 187  240 210 173  245 226 181  253 233 187  253 234 194
254 243 201  254 243 206  255 250 211  255 250 211  255 250 211  251 247 211
253 248 208  253 247 203  250 245 198  254 250 202  250 245 198  250 245 198
250 245 198  249 245 190  250 245 198  254 250 202  249 245 190  249 245 190
254 250 202  254 250 202  254 250 202  254 250 202  254 250 202  254 243 201
253 237 196  253 237 196  253 237 196  250 245 198  251 237 192  253 233 187
253 226 175  251 232 170  251 236 179  245 227 173  253 226 175  251 236 182
252 237 187  253 233 187  253 234 194  253 230 191  253 230 191  253 230 191
253 233 187  253 233 187  251 230 182  251 230 182  245 227 173  245 227 173
252 226 181  251 230 182  251 230 182  251 230 182  251 230 182  253 230 191
251 237 192  253 237 196  254 243 201  254 243 206  254 248 208  255 250 211
253 248 208  254 243 206  246 237 196  247 225 192  240 219 178  253 237 196
249 212 166  249 204 159  236 198 141  236 181 132  236 181 132  236 181 132
224 179 123  236 198 141  252 220 166  224 179 123  213 158 106  213 158 106
225 150 100  225 150 100  225 147 96  225 147 96
231 160 111  225 154 109  231 160 111  232 165 122  232 165 122  232 165 122
237 171 132  247 190 150  247 190 150  249 210 159  249 212 166  249 212 166
245 205 166  252 237 187  252 226 181  240 219 178  245 226 181  253 237 196
254 243 206  255 250 211  255 250 211  255 250 211  255 250 211  255 250 211
254 248 208  255 246 203  250 245 198  250 245 198  250 245 198  250 245 198
250 245 198  250 245 198  252 247 205  255 250 211  255 250 211  254 248 208
240 219 178  213 174 145  189 150 99  152 115 94  134 94 74  134 94 74
134 94 74  134 94 74  152 115 94  189 150 99  213 174 145  240 210 173
253 234 194  251 237 192  253 233 187  254 243 201  252 226 181  232 203 157
196 161 137  185 132 113  134 94 74  134 94 74  134 94 74  134 94 74
152 115 94  185 132 113  205 170 140  240 207 160  252 237 187  251 237 192
251 230 182  253 226 175  252 226 181  252 226 181  252 226 181  253 233 187
253 230 191  253 234 194  253 237 196  254 243 201  254 243 206  254 248 208
255 250 211  253 248 208  250 243 201  247 225 192  245 226 181  253 234 194
249 212 166  247 197 150  247 197 150  247 197 150  249 210 159  249 210 159
249 210 159  252 220 166  224 179 123  223 169 124  225 162 107  225 162 107
225 147 96  225 147 96  225 147 96  225 147 96
232 165 122  225 154 109  231 160 111  232 165 122  232 165 122  237 171 132
232 165 122  237 171 132  237 171 132  223 169 124  232 188 141  241 199 159
253 226 175  252 220 175  230 204 165  240 219 178  247 225 192  246 237 196
254 243 206  253 248 208  255 250 211  255 250 211  255 250 211  254 248 208
255 246 203  254 250 202  255 246 203  254 250 202  250 245 198  250 245 198
252 247 205  252 252 211  250 253 215  239 228 204  169 153 133  109 93 73
70 46 26  56 20 5  66 37 10  76 40 10  76 40 10  76 40 10
76 40 10  76 40 10  76 40 10  76 40 10  87 47 22  111 49 45
134 94 74  205 170 140  253 222 192  185 132 113  114 75 47  82 47 21
76 40 10  73 27 7  76 40 10  66 37 10  76 40 10  82 47 21
76 40 10  76 40 10  73 27 7  76 40 10  114 75 47  189 150 99
240 207 160  253 226 175  252 220 175  253 226 175  253 226 175  252 220 180
251 230 182  253 230 191  253 230 191  253 237 196  254 243 201  254 243 206
253 248 208  253 248 208  253 248 208  254 243 206  251 237 192  253 233 187
245 205 166  247 197 150  244 187 141  247 197 150  236 181 132  218 165 108
232 188 141  223 182 134  225 154 109  231 160 111  231 160 111  225 150 100
225 147 96  225 147 96  225 147 96  225 147 96
232 165 122  218 149 107  225 154 109  232 165 122  232 165 122  237 171 132
237 171 132  237 171 132  237 171 132  237 171 132  237 181 145  237 181 145
241 195 156  245 205 166  240 210 173  251 230 182  246 237 196  250 243 201
254 248 208  253 248 208  254 243 206  255 246 203  254 243 201  253 237 196
251 237 192  252 237 187  251 237 192  254 243 201  254 243 201  255 250 211
250 253 215  250 253 215  243 237 221  186 177 183  153 127 124  153 127 124
152 115 94  109 93 73  69 36 25  57 27 21  70 46 26  86 40 34
86 40 34  86 40 34  86 40 34  86 40 34  86 40 34  86 40 34
69 36 25  82 47 21  114 75 47  66 37 10  82 29 16  87 47 22
86 40 34  86 40 34  86 40 34  86 40 34  86 40 34  86 40 34
73 27 7  87 47 22  134 94 74  152 115 94  189 150 99  189 150 99
223 182 134  253 226 175  253 226 175  247 219 167  252 220 175  253 226 175
253 226 175  252 226 181  253 233 187  253 233 187  253 237 196  254 243 201
254 243 206  253 248 208  251 247 211  255 250 211  253 237 196  247 220 179
249 212 166  248 200 158  244 187 141  237 171 132  237 171 132  232 165 122
223 169 124  225 154 109  231 160 111  225 154 109  225 150 100  225 150 100
225 147 96  225 147 96  225 147 96  225 147 96
223 169 124  225 154 109  225 154 109  224 154 125  232 165 122  232 165 122
237 171 132  232 165 122  237 171 132  237 171 132  237 181 145  239 189 150
241 195 156  249 211 172  247 220 179  247 225 192  250 243 201  252 247 205
255 250 211  254 248 208  254 243 206  254 243 201  253 234 194  253 233 187
251 230 182  247 220 179  247 220 179  245 226 181  253 234 194  254 243 206
250 253 215  250 253 215  237 237 239  237 237 239  237 237 239  237 237 239
237 237 239  237 237 239  239 228 204  153 127 124  70 46 26  82 37 31
82 37 31  82 37 31  86 40 34  86 40 34  86 40 34  86 40 34
86 40 34  86 40 34  73 28 22  86 40 34  86 40 34  82 37 31
82 37 31  86 40 34  86 40 34  86 40 34  86 40 34  111 49 45
185 132 113  240 198 177  253 222 192  253 222 192  252 226 181  253 233 187
253 226 175  247 219 167  252 220 175  253 226 175  247 219 167  247 219 167
252 220 175  252 220 175  245 226 181  253 233 187  251 237 192  253 237 196
250 243 201  254 248 208  255 250 211  255 250 211  254 243 201  245 226 181
249 211 172  249 204 159  244 187 141  237 171 132  237 171 132  232 165 122
213 158 106  213 158 106  218 149 107  225 150 100  234 158 103  225 147 96
225 147 96  225 147 96  225 147 96  225 147 96
249 204 159  236 181 132  225 154 109  224 154 125  232 165 122  224 154 125
232 165 122  236 181 132  236 181 132  247 197 150  249 210 159  245 205 166
252 220 180  247 220 179  245 226 181  253 237 196  254 243 206  254 248 208
254 248 208  254 243 206  254 243 206  253 237 196  253 230 191  252 226 181
252 226 181  252 220 175  249 211 172  240 210 173  240 219 178  247 225 192
254 243 206  250 253 215  237 237 239  237 237 239  237 237 239  237 237 239
237 237 239  239 228 204  225 198 173  153 127 124  74 54 47  82 37 31
82 37 31  82 37 31  86 40 34  82 37 31  82 37 31  82 37 31
82 37 31  82 37 31  86 40 34  82 37 31  82 37 31  82 37 31
86 40 34  82 37 31  86 40 34  82 37 31  86 40 34  114 75 47
185 132 113  230 186 157  240 210 173  253 230 191  252 226 181  247 219 167
247 219 167  252 220 175  247 219 167  247 219 167  252 220 166  252 220 166
247 219 167  247 219 167  247 220 179  251 230 182  253 233 187  253 237 196
254 243 201  254 243 206  255 250 211  255 250 211  253 247 203  251 237 192
245 227 173  249 204 159  244 187 141  244 187 141  224 179 123  224 179 123
232 188 141  236 198 141  244 187 141  225 162 107  225 147 96  225 150 100
225 147 96  225 147 96  225 147 96  225 147 96
214 152 127  247 190 150  236 181 132  218 149 107  218 149 107  232 165 122
237 171 132  232 165 122  224 179 123  223 182 134  232 188 141  235 197 150
240 210 173  253 230 191  253 237 196  254 243 201  254 248 208  254 248 208
254 243 206  254 243 201  253 237 196  253 234 194  249 225 191  252 220 180
252 220 180  252 220 175  249 211 172  249 211 172  240 210 173  240 219 178
254 230 204  251 247 211  237 237 239  237 237 239  237 237 239  186 177 183
114 104 108  74 54 47  57 27 21  69 36 25  82 37 31  82 37 31
86 40 34  86 40 34  82 37 31  82 37 31  86 40 34  82 37 31
86 40 34  86 40 34  86 40 34  86 40 34  82 37 31  82 37 31
82 37 31  82 37 31  86 40 34  86 40 34  86 40 34  86 40 34
76 40 10  76 40 10  114 75 47  152 115 94  213 174 145  252 220 180
253 233 187  252 220 175  247 219 167  247 219 167  249 212 166  252 220 166
247 219 167  252 220 175  245 227 173  245 226 181  251 230 182  253 230 191
253 237 196  254 243 206  254 243 206  255 250 211  253 248 208  246 237 196
245 226 181  249 212 166  239 189 150  236 181 132  232 188 141  249 210 159
236 198 141  235 191 131  235 191 131  236 175 114  225 147 96  225 147 96
225 147 96  225 147 96  225 147 96  225 147 96
218 149 107  232 165 122  250 206 166  232 188 141  223 182 134  236 181 132
225 154 109  232 165 122  223 169 124  232 188 141  233 185 150  242 198 164
249 211 172  245 226 181  251 237 192  254 250 202  254 248 208  255 246 203
255 246 203  254 243 201  253 237 196  247 225 192  249 225 191  252 220 180
249 211 172  250 206 166  250 206 166  250 206 166  245 205 166  245 205 166
249 211 172  254 243 206  249 232 211  169 153 133  96 63 76  57 27 21
57 27 21  69 36 25  86 40 34  86 40 34  86 40 34  86 40 34
86 40 34  86 40 34  86 40 34  86 40 34  86 40 34  86 40 34
86 40 34  86 40 34  86 40 34  86 40 34  82 37 31  82 37 31
86 40 34  82 37 31  82 37 31  86 40 34  86 40 34  86 40 34
86 40 34  86 40 34  87 47 22  82 47 21  87 47 22  114 75 47
205 150 129  252 220 175  253 226 175  241 220 167  247 219 167  247 219 167
249 212 166  252 220 175  247 220 179  245 226 181  245 226 181  251 237 192
254 243 201  254 243 206  254 243 206  253 248 208  253 248 208  250 245 198
251 230 182  241 220 167  235 197 150  247 197 150  247 197 150  238 178 122
213 158 106  213 158 106  225 150 100  225 150 100  225 147 96  225 147 96
225 147 96  225 147 96  225 147 96  225 147 96
225 154 109  218 149 107  223 169 124  218 165 108  236 181 132  237 181 145
237 171 132  232 165 122  223 169 124  237 181 145  239 189 150  245 205 166
249 211 182  249 225 191  251 237 192  254 250 202  254 248 208  255 246 203
254 243 201  254 243 201  251 237 192  249 225 191  247 220 179  247 220 179
249 211 172  250 206 166  248 200 158  247 197 150  250 206 166  245 205 166
252 220 180  196 161 137  114 75 47  57 27 21  70 46 26  70 46 26
86 40 34  86 40 34  86 40 34  82 37 31  86 40 34  86 40 34
86 40 34  86 40 34  86 40 34  86 40 34  86 40 34  86 40 34
82 37 31  86 40 34  86 40 34  86 40 34  86 40 34  82 37 31
82 37 31  82 37 31  86 40 34  82 37 31  82 37 31  82 37 31
86 40 34  86 40 34  86 40 34  86 40 34  86 40 34  82 47 21
76 40 10  114 75 47  215 171 128  252 226 181  252 220 175  249 211 172
249 211 172  249 211 172  247 219 167  253 233 187  253 233 187  251 237 192
246 237 196  254 248 208  254 243 206  253 248 208  253 248 208  252 247 205
253 237 196  245 226 181  249 212 166  249 210 159  236 181 132  232 165 122
225 162 107  225 150 100  225 150 100  225 150 100  225 147 96  225 147 96
225 147 96  225 147 96  225 147 96  225 147 96
225 154 109  218 149 107  218 149 107  218 149 107  225 154 109  225 154 109
237 171 132  237 171 132  232 165 122  236 181 132  239 189 150  245 205 166
247 220 179  253 234 194  254 243 201  254 248 208  254 248 208  255 246 203
253 237 196  251 237 192  251 237 192  253 230 191  247 220 179  249 211 182
250 206 166  250 206 166  250 206 166  247 197 150  249 211 172  242 198 164
134 94 74  73 27 7  69 36 25  82 37 31  82 37 31  69 36 25
86 40 34  82 37 31  86 40 34  82 37 31  86 40 34  82 37 31
82 37 31  82 37 31  86 40 34  86 40 34  82 37 31  86 40 34
86 40 34  86 40 34  86 40 34  82 37 31  86 40 34  82 37 31
82 37 31  86 40 34  82 37 31  82 37 31  82 37 31  86 40 34
82 37 31  82 37 31  86 40 34  82 37 31  82 37 31  86 40 34
87 47 22  87 47 22  87 47 22  152 115 94  230 204 165  252 220 180
249 212 166  253 226 175  253 226 175  247 219 167  252 226 181  245 226 181
253 237 196  254 243 206  254 243 206  254 243 206  254 248 208  254 248 208
254 243 201  253 233 187  249 212 166  248 200 158  236 181 132  237 171 132
232 165 122  231 160 111  225 154 109  225 150 100  225 147 96  225 147 96
225 147 96  225 147 96  225 147 96  225 147 96
225 154 109  210 155 97  218 149 107  218 149 107  218 149 107  218 149 107
213 158 106  225 154 109  232 165 122  236 181 132  241 195 156  249 211 172
247 220 179  253 237 196  254 243 206  254 248 208  254 248 208  254 248 208
254 243 201  253 237 196  253 234 194  249 225 191  252 220 180  252 220 175
250 206 166  249 204 159  247 190 150  249 211 172  212 157 140  87 47 22
73 28 22  86 40 34  82 37 31  86 40 34  82 37 31  86 40 34
86 40 34  86 40 34  82 37 31  82 37 31  82 37 31  86 40 34
86 40 34  82 37 31  82 37 31  86 40 34  86 40 34  82 37 31
73 28 22  73 28 22  73 28 22  82 37 31  86 40 34  86 40 34
86 40 34  82 37 31  86 40 34  82 37 31  82 37 31  82 37 31
82 37 31  86 40 34  82 37 31  86 40 34  86 40 34  82 37 31
86 40 34  86 40 34  87 47 22  82 47 21  114 75 47  223 187 146
252 226 181  253 226 175  249 212 166  240 207 160  252 220 175  253 233 187
254 243 201  250 243 201  250 243 201  254 243 206  254 248 208  254 248 208
255 246 203  253 233 187  249 212 166  241 195 156  232 188 141  237 171 132
232 165 122  225 154 109  218 149 107  218 149 107  225 150 100  225 147 96
225 147 96  225 147 96  225 147 96  225 147 96
213 158 106  210 155 97  213 158 106  213 158 106  225 162 107  236 175 114
225 175 108  224 179 123  236 181 132  232 188 141  232 191 150  240 207 160
247 220 179  254 243 201  255 250 211  251 247 211  252 252 211  255 250 211
254 243 206  254 243 201  253 234 194  252 226 181  252 220 175  249 212 166
249 204 159  249 197 160  249 206 180  205 150 129  93 40 21  82 29 16
86 40 34  82 37 31  82 37 31  82 37 31  82 37 31  82 37 31
86 40 34  82 37 31  82 37 31  82 37 31  86 40 34  82 37 31
82 37 31  86 40 34  86 40 34  73 28 22  73 28 22  86 40 34
114 75 47  134 94 74  134 94 74  111 49 45  82 37 31  73 28 22
82 37 31  86 40 34  82 37 31  82 37 31  82 37 31  86 40 34
86 40 34  82 37 31  86 40 34  86 40 34  86 40 34  86 40 34
82 37 31  86 40 34  86 40 34  86 40 34  87 47 22  87 47 22
205 170 140  252 220 180  232 203 157  252 220 166  252 220 175  247 220 179
249 225 191  246 237 196  250 243 201  254 243 206  254 243 206  255 246 203
255 246 203  253 234 194  247 220 179  241 199 159  232 188 141  223 169 124
223 169 124  225 154 109  218 149 107  218 149 107  225 154 109  218 149 107
225 154 109  225 154 109  225 154 109  225 154 109
225 175 108  238 178 122  248 194 131  249 201 140  249 201 140  249 201 140
250 211 150  250 211 150  253 226 175  252 237 187  253 234 194  253 234 194
252 237 187  250 245 198  255 252 211  250 253 215  249 248 211  251 247 211
254 243 206  254 243 206  253 237 196  251 230 182  247 219 167  249 212 166
248 200 158  250 206 166  205 150 129  93 40 21  87 32 19  86 40 34
82 37 31  86 40 34  82 37 31  82 37 31  86 40 34  82 37 31
86 40 34  82 37 31  82 37 31  82 37 31  82 37 31  82 37 31
82 37 31  73 28 22  69 36 25  114 75 47  169 153 133  226 174 158
241 201 188  254 217 202  252 210 197  240 198 177  213 174 145  152 115 94
111 49 45  73 28 22  73 28 22  86 40 34  82 37 31  82 37 31
86 40 34  82 37 31  86 40 34  86 40 34  82 37 31  86 40 34
86 40 34  86 40 34  82 37 31  86 40 34  86 40 34  87 47 22
87 47 22  205 170 140  252 220 175  232 203 157  252 220 175  252 220 180
252 226 181  253 234 194  253 237 196  254 243 206  254 243 206  254 248 208
255 246 203  253 237 196  247 220 179  240 207 160  235 197 150  232 188 141
237 171 132  223 169 124  232 165 122  232 165 122  232 165 122  232 165 122
232 165 122  223 169 124  223 169 124  223 169 124
248 194 131  248 194 131  247 191 119  247 191 119  247 191 119  247 191 119
248 194 131  236 198 141  253 233 187  255 250 211  255 252 211  255 252 211
255 252 211  255 252 211  250 253 215  250 253 215  249 248 211  248 243 206
248 243 206  254 243 206  254 243 201  253 233 187  247 219 167  249 212 166
250 206 166  223 175 146  93 40 21  87 32 19  86 40 34  82 37 31
86 40 34  87 47 22  82 37 31  73 28 22  86 40 34  86 40 34
82 37 31  86 40 34  82 37 31  86 40 34  86 40 34  82 37 31
73 28 22  109 93 73  205 170 140  252 210 197  254 217 202  254 217 202
246 208 197  240 205 192  240 198 177  241 201 188  245 206 192  252 210 197
240 198 177  185 132 113  114 75 47  73 27 7  82 37 31  86 40 34
82 37 31  86 40 34  86 40 34  86 40 34  86 40 34  82 37 31
82 37 31  82 47 21  87 47 22  87 47 22  93 40 21  111 49 45
87 47 22  87 47 22  213 174 145  252 220 180  249 211 172  247 220 179
252 226 181  245 226 181  246 237 196  254 243 206  254 248 208  254 248 208
255 252 211  255 246 203  253 233 187  240 219 178  232 203 157  232 191 150
232 188 141  237 181 145  237 171 132  223 169 124  223 164 136  223 164 136
223 169 124  223 169 124  223 169 124  223 169 124
250 211 150  235 191 131  234 188 118  234 188 118  247 191 119  247 191 119
248 194 131  236 198 141  252 237 187  255 252 211  255 250 211  255 252 211
255 252 211  252 252 211  250 253 215  250 253 215  250 253 215  248 243 206
246 237 196  254 230 204  254 243 201  253 233 187  241 220 167  240 210 173
245 205 166  114 75 47  82 29 16  86 40 34  87 47 22  82 47 21
76 40 10  73 27 7  87 47 22  114 75 47  86 40 34  82 37 31
82 37 31  86 40 34  82 37 31  86 40 34  73 28 22  111 49 45
196 161 137  254 217 202  252 210 197  241 201 188  246 212 198  240 205 192
240 205 192  246 212 198  240 205 192  241 201 188  241 201 188  240 198 177
249 202 188  251 209 192  240 198 177  185 132 113  86 40 34  73 28 22
82 37 31  82 37 31  82 37 31  82 37 31  86 40 34  86 40 34
111 49 45  87 47 22  66 37 10  73 27 7  76 40 10  87 47 22
111 49 45  87 47 22  114 75 47  240 198 177  252 220 180  252 220 180
252 226 181  253 233 187  254 243 201  254 243 206  253 248 208  253 248 208
255 250 211  254 248 208  251 237 192  245 226 181  240 207 160  233 193 157
223 187 146  223 182 134  223 164 136  223 164 136  223 164 136  223 164 136
223 169 124  223 169 124  223 169 124  223 169 124
253 233 187  253 233 187  239 206 150  234 188 118  234 188 118  249 201 140
235 191 131  236 198 141  245 227 173  250 245 198  254 250 202  255 252 211
255 252 211  250 253 215  250 253 215  250 253 215  255 250 211  255 250 211
254 243 206  253 237 196  254 243 201  251 237 192  240 219 178  253 230 191
152 115 94  66 37 10  82 47 21  76 40 10  76 40 10  87 47 22
114 75 47  185 132 113  196 161 137  114 75 47  82 47 21  69 36 25
114 75 47  86 40 34  73 28 22  82 37 31  152 115 94  241 201 188
254 217 202  241 201 188  246 208 197  240 205 192  245 206 192  245 206 192
245 206 192  245 206 192  245 211 192  245 206 192  240 207 184  245 206 192
240 207 184  240 207 184  240 207 184  252 210 197  227 183 166  134 94 74
73 28 22  73 28 22  111 49 45  114 75 47  73 28 22  69 36 25
114 75 47  226 174 158  196 161 137  134 94 74  87 47 22  76 40 10
76 40 10  87 47 22  87 47 22  152 115 94  253 230 191  245 226 181
252 226 181  253 234 194  253 237 196  248 243 206  253 248 208  255 250 211
255 250 211  254 248 208  250 243 201  240 219 178  230 204 165  232 203 157
232 191 150  223 187 146  223 175 146  223 164 136  223 164 136  223 164 136
223 169 124  223 169 124  223 169 124  223 169 124
253 233 187  252 237 187  239 206 150  234 188 118  234 188 118  250 211 150
251 232 170  236 198 141  239 206 150  241 220 167  245 226 181  251 237 192
255 252 211  255 252 211  255 252 211  255 252 211  255 252 211  254 243 206
254 248 208  251 237 192  253 233 187  253 233 187  253 237 196  230 204 165
76 40 10  73 27 7  87 47 22  114 75 47  189 150 99  223 182 134
249 204 159  249 211 172  114 75 47  73 27 7  73 27 7  153 127 124
185 132 113  56 20 5  111 49 45  205 170 140  254 217 202  254 217 202
241 201 188  245 206 192  246 208 197  245 206 192  246 208 197  245 206 192
246 208 197  246 208 197  245 206 192  245 206 192  245 211 192  245 206 192
241 201 188  249 210 189  251 209 192  240 207 184  252 210 197  252 210 197
169 153 133  86 40 34  56 20 5  196 161 137  153 127 124  73 28 22
66 37 10  134 94 74  253 230 191  253 230 191  249 211 172  196 161 137
152 115 94  114 75 47  87 47 22  82 47 21  205 170 140  253 230 191
253 233 187  253 234 194  250 243 201  254 243 206  254 243 206  255 250 211
255 250 211  255 250 211  254 243 206  245 226 181  240 210 173  230 204 165
232 191 150  233 185 150  223 175 146  223 164 136  223 164 136  223 164 136
223 164 136  223 169 124  223 169 124  223 169 124
250 211 150  250 211 150  234 188 118  234 188 118  225 175 108  249 201 140
251 236 179  239 206 150  239 206 150  249 210 159  241 220 167  251 237 192
255 252 211  255 252 211  255 252 211  255 252 211  248 243 206  254 243 206
254 243 201  255 246 203  251 230 182  241 220 167  252 226 181  134 94 74
114 75 47  185 132 113  215 171 128  239 206 150  249 210 159  249 210 159
252 220 180  134 94 74  73 27 7  76 40 10  152 115 94  254 217 202
114 75 47  109 93 73  240 198 177  254 217 202  245 206 192  241 201 188
245 206 192  245 206 192  245 206 192  245 206 192  245 206 192  245 206 192
249 202 188  249 202 188  245 206 192  245 206 192  251 209 192  245 206 192
245 206 192  245 211 192  241 201 188  245 211 192  245 211 192  241 201 188
254 217 202  227 183 166  111 49 45  134 94 74  243 237 221  152 115 94
69 36 25  73 27 7  134 94 74  253 230 191  247 220 179  251 230 182
252 226 181  249 211 172  215 171 128  134 94 74  134 94 74  253 230 191
253 230 191  251 237 192  254 243 206  254 243 206  254 248 208  255 250 211
255 250 211  255 250 211  254 243 206  245 226 181  240 210 173  230 204 165
232 191 150  237 181 145  233 171 146  223 164 136  223 164 136  223 164 136
223 164 136  223 164 136  223 164 136  223 169 124
225 175 108  225 161 94  235 177 103  235 177 103  235 177 103  248 194 131
248 194 131  235 191 131  249 201 140  249 210 159  247 219 167  252 237 187
255 246 203  253 248 208  252 252 211  255 252 211  250 253 215  248 243 206
246 237 196  252 237 187  251 236 182  251 230 182  240 207 160  196 161 137
247 220 179  252 226 181  239 206 150  250 211 150  250 211 150  249 212 166
189 150 99  73 27 7  66 37 10  134 94 74  254 217 202  213 174 145
152 115 94  241 201 188  251 209 192  245 211 192  245 206 192  251 209 192
251 209 192  245 206 192  245 206 192  251 209 192  241 201 188  251 209 192
249 202 188  252 210 197  252 210 197  245 206 192  245 206 192  245 206 192
245 206 192  245 206 192  245 206 192  245 206 192  245 206 192  245 211 192
240 207 184  252 210 197  241 201 188  152 115 94  225 198 173  243 237 221
152 115 94  69 36 25  66 37 10  185 132 113  253 234 194  240 207 160
252 220 166  252 220 166  252 226 181  252 226 181  230 204 165  245 226 181
251 237 192  246 237 196  254 243 206  254 243 206  254 248 208  255 250 211
255 250 211  255 250 211  254 243 206  247 225 192  240 210 173  241 199 159
232 191 150  237 181 145  237 181 145  233 171 146  223 164 136  223 164 136
223 164 136  223 169 124  223 169 124  223 164 136
235 177 103  235 177 103  234 169 103  235 177 103  235 177 103  235 177 103
236 175 114  234 188 118  248 194 131  250 211 150  241 220 167  251 236 179
250 245 198  254 250 202  255 250 211  255 250 211  249 248 211  250 253 215
248 243 206  251 237 192  251 236 182  253 226 175  252 220 175  252 220 175
240 210 173  240 207 160  247 219 167  239 206 150  239 206 150  223 182 134
87 47 22  73 27 7  114 75 47  240 210 173  241 197 168  227 183 166
249 210 189  245 211 192  245 206 192  245 206 192  245 206 192  245 206 192
245 206 192  251 209 192  245 206 192  245 206 192  245 206 192  249 202 188
251 209 192  227 183 166  226 174 158  252 210 197  249 202 188  251 209 192
245 206 192  245 206 192  245 211 192  245 206 192  245 206 192  246 212 198
245 206 192  241 201 188  252 210 197  252 210 197  240 205 192  253 228 204
254 217 202  114 75 47  69 36 25  87 47 22  230 204 165  253 226 175
247 219 167  252 220 166  247 219 167  247 219 167  245 226 181  251 237 192
251 237 192  250 243 201  248 243 206  253 248 208  254 248 208  255 250 211
255 250 211  255 250 211  254 248 208  247 225 192  240 219 178  240 207 160
232 191 150  237 181 145  237 171 132  237 171 132  223 164 136  223 169 124
223 169 124  223 169 124  223 169 124  223 169 124
225 161 94  225 156 82  234 169 103  234 169 103  234 169 103  235 177 103
235 177 103  234 188 118  248 194 131  250 211 150  247 219 167  251 236 182
250 245 198  254 250 202  255 252 211  255 250 211  250 253 215  250 253 215
250 253 215  250 243 201  245 226 181  251 230 182  251 230 182  240 210 173
240 219 178  253 234 194  249 245 190  241 220 167  239 206 150  163 104 56
76 40 10  82 47 21  213 174 145  241 197 168  230 186 157  240 207 184
240 207 184  240 207 184  245 211 192  245 206 192  245 211 192  245 211 192
245 206 192  245 206 192  241 201 188  245 206 192  252 210 197  249 202 188
252 210 197  152 115 94  134 94 74  251 209 192  249 202 188  251 209 192
245 206 192  245 206 192  245 206 192  240 205 192  246 212 198  245 211 192
245 206 192  252 210 197  249 202 188  245 206 192  245 211 192  245 211 192
249 232 211  227 183 166  86 40 34  66 37 10  152 115 94  253 233 187
247 219 167  247 219 167  247 219 167  253 226 175  245 226 181  253 233 187
247 225 192  250 243 201  253 248 208  251 247 211  255 250 211  255 250 211
255 250 211  255 250 211  255 246 203  247 225 192  240 219 178  240 207 160
232 191 150  237 181 145  237 181 145  237 171 132  223 164 136  223 169 124
223 169 124  223 169 124  223 169 124  223 169 124
235 177 103  236 175 114  225 161 94  225 161 94  247 191 119  225 175 108
225 175 108  234 188 118  248 194 131  250 211 150  252 220 166  251 230 182
254 243 201  255 252 211  252 252 211  249 248 211  255 250 211  255 250 211
250 253 215  251 247 211  251 237 192  245 226 181  245 226 181  245 226 181
250 243 201  255 250 211  254 248 208  254 250 202  223 187 146  87 47 22
73 27 7  152 115 94  249 211 182  230 186 157  233 193 157  240 198 177
240 207 184  240 207 184  240 207 184  251 209 192  241 201 188  245 206 192
245 206 192  245 211 192  252 210 197  245 206 192  245 206 192  251 209 192
251 209 192  134 94 74  134 94 74  249 202 188  249 202 188  249 202 188
245 206 192  245 206 192  246 208 197  245 206 192  245 206 192  245 206 192
246 208 197  245 206 192  252 210 197  245 206 192  245 211 192  245 211 192
240 211 193  249 232 211  152 115 94  66 37 10  82 47 21  233 193 157
252 226 181  247 219 167  252 220 175  245 227 173  253 233 187  251 237 192
254 248 208  254 248 208  255 250 211  255 252 211  255 252 211  255 252 211
255 250 211  255 250 211  253 247 203  245 226 181  240 219 178  240 207 160
232 191 150  239 189 150  237 181 145  237 171 132  223 182 134  223 182 134
223 182 134  232 188 141  235 197 150  241 199 159
248 194 131  248 194 131  248 194 131  234 188 118  250 211 150  234 188 118
225 175 108  234 188 118  248 194 131  247 197 150  252 220 166  253 233 187
250 243 201  253 248 208  250 253 215  250 253 215  255 250 211  251 247 211
255 250 211  250 253 215  246 237 196  235 226 192  246 237 196  255 250 211
250 253 215  249 248 211  255 250 211  255 250 211  152 115 94  73 27 7
87 47 22  213 174 145  241 197 168  233 193 157  241 197 168  249 206 180
240 207 184  249 210 189  245 206 192  245 206 192  245 206 192  245 206 192
245 206 192  240 207 184  245 206 192  251 209 192  245 206 192  249 202 188
251 209 192  241 186 168  226 174 158  251 209 192  249 202 188  249 202 188
251 209 192  246 208 197  245 206 192  246 208 197  245 206 192  246 208 197
245 206 192  245 206 192  245 206 192  251 209 192  240 207 184  240 207 184
246 212 198  253 228 204  225 198 173  86 40 34  66 37 10  152 115 94
253 230 191  245 226 181  245 227 173  251 230 182  253 237 196  254 243 201
254 243 201  250 243 201  253 248 208  252 252 211  255 250 211  255 250 211
255 250 211  255 252 211  254 248 208  251 237 192  240 219 178  232 203 157
232 191 150  233 185 150  232 188 141  223 182 134  223 182 134  232 188 141
249 212 166  252 220 166  252 220 175  252 220 166
236 175 114  234 169 103  236 175 114  248 194 131  248 194 131  225 175 108
218 165 108  234 188 118  235 191 131  247 197 150  249 210 159  251 230 182
250 245 198  255 252 211  255 252 211  255 250 211  255 250 211  250 253 215
255 250 211  254 248 208  250 243 201  247 247 204  255 252 211  255 252 211
250 253 215  250 253 215  250 253 215  239 228 204  114 75 47  73 27 7
134 94 74  249 206 180  230 186 157  230 186 157  249 206 180  249 206 180
249 206 180  249 202 188  249 202 188  249 210 189  251 209 192  249 210 189
249 210 189  249 210 189  240 207 184  245 211 192  240 207 184  249 210 189
249 202 188  252 210 197  252 210 197  249 202 188  245 206 192  241 201 188
245 206 192  246 208 197  246 208 197  245 206 192  240 205 192  246 208 197
245 206 192  245 206 192  245 206 192  245 211 192  245 211 192  240 207 184
246 212 198  254 217 202  249 232 211  134 94 74  66 37 10  114 75 47
247 220 179  245 226 181  251 236 182  249 245 190  252 237 187  251 230 182
251 237 192  246 237 196  250 243 201  251 247 211  255 252 211  255 252 211
255 250 211  255 250 211  254 248 208  251 237 192  241 220 167  232 203 157
223 187 146  223 187 146  223 187 146  223 182 134  241 195 156  252 220 175
249 212 166  244 187 141  236 181 132  232 165 122
236 175 114  236 175 114  236 175 114  236 175 114  235 191 131  248 194 131
235 191 131  235 191 131  236 198 141  239 206 150  247 219 167  245 226 181
250 245 198  253 247 203  251 247 211  255 252 211  255 250 211  253 248 208
254 243 206  255 250 211  251 247 211  249 248 211  250 253 215  250 253 215
250 253 215  250 253 215  250 253 215  225 198 173  70 46 26  76 40 10
185 132 113  245 205 166  230 186 157  241 197 168  240 198 177  249 210 189
240 207 184  251 209 192  240 207 184  249 210 189  245 206 192  240 207 184
249 210 189  245 206 192  245 211 192  245 211 192  254 217 202  245 211 192
245 206 192  245 211 192  245 206 192  245 206 192  251 209 192  253 228 204
245 206 192  245 206 192  241 201 188  245 206 192  252 210 197  252 210 197
241 201 188  245 206 192  246 212 198  245 211 192  240 207 184  254 217 202
245 211 192  240 205 192  249 232 211  196 161 137  66 37 10  82 47 21
223 187 146  253 233 187  252 237 187  252 237 187  251 230 182  253 233 187
251 237 192  253 237 196  252 247 205  255 252 211  251 247 211  251 247 211
250 253 215  255 250 211  255 246 203  251 237 192  245 227 173  240 207 160
240 207 160  249 210 159  249 204 159  249 212 166  252 220 175  248 200 158
224 179 123  223 169 124  232 165 122  240 168 122
236 175 114  236 175 114  236 175 114  238 178 122  249 201 140  249 201 140
249 201 140  250 211 150  249 210 159  249 210 159  247 219 167  241 220 167
249 245 190  255 252 211  255 250 211  255 250 211  251 247 211  248 243 206
251 247 211  250 253 215  249 248 211  250 253 215  250 253 215  250 253 215
250 253 215  251 247 211  250 253 215  205 170 140  66 37 10  82 47 21
223 187 146  233 193 157  230 186 157  241 197 168  240 207 184  225 198 173
249 210 189  245 206 192  245 211 192  245 211 192  245 211 192  246 212 198
245 206 192  245 206 192  245 211 192  225 198 173  152 115 94  240 198 177
245 211 192  240 207 184  241 201 188  252 210 197  227 183 166  185 132 113
246 208 197  246 208 197  245 206 192  245 206 192  241 201 188  246 208 197
241 201 188  245 206 192  254 217 202  185 132 113  111 49 45  225 198 173
246 212 198  246 212 198  249 232 211  241 201 188  86 40 34  66 37 10
169 153 133  254 248 208  253 230 191  245 226 181  245 226 181  247 225 192
254 243 201  253 247 203  252 247 205  252 247 205  255 252 211  250 253 215
255 250 211  254 248 208  254 243 201  245 226 181  251 230 182  253 226 175
253 226 175  253 226 175  253 226 175  252 220 166  247 197 150  236 181 132
238 178 122  232 165 122  232 165 122  240 168 122
225 162 107  231 160 111  236 175 114  236 175 114  236 175 114  236 175 114
238 178 122  235 191 131  247 197 150  249 210 159  253 226 175  251 236 182
250 245 198  254 248 208  255 250 211  253 248 208  255 252 211  251 247 211
251 247 211  250 253 215  250 253 215  250 253 215  250 253 215  250 253 215
250 253 215  249 232 211  251 247 211  153 127 124  56 20 5  114 75 47
241 197 168  233 193 157  230 186 157  249 206 180  213 174 145  76 40 10
196 161 137  254 217 202  241 201 188  240 205 192  240 205 192  245 211 192
240 207 184  245 211 192  252 210 197  114 75 47  56 20 5  227 183 166
252 210 197  245 211 192  245 206 192  254 217 202  196 161 137  56 20 5
152 115 94  254 217 202  252 210 197  245 206 192  240 205 192  241 201 188
252 210 197  254 217 202  196 161 137  56 20 5  114 75 47  240 207 184
246 212 198  246 212 198  254 217 202  253 228 204  114 75 47  56 20 5
152 115 94  247 225 192  240 210 173  253 230 191  253 234 194  254 243 201
254 243 206  250 243 201  255 250 211  253 248 208  255 250 211  255 250 211
251 247 211  255 250 211  253 237 196  240 210 173  232 203 157  223 187 146
223 182 134  224 179 123  224 179 123  224 179 123  225 175 108  225 175 108
236 175 114  240 168 122  240 168 122  240 168 122
210 155 97  210 155 97  213 158 106  213 158 106  225 162 107  232 165 122
238 178 122  236 181 132  232 188 141  249 204 159  252 220 175  251 237 192
255 246 203  254 248 208  255 250 211  255 250 211  254 248 208  253 248 208
250 253 215  250 253 215  250 253 215  250 253 215  249 232 211  169 153 133
134 94 74  114 75 47  114 75 47  82 47 21  66 37 10  134 94 74
242 198 164  230 186 157  233 193 157  249 206 180  241 197 168  87 47 22
73 27 7  196 161 137  254 217 202  254 217 202  246 208 197  240 205 192
254 217 202  245 211 192  134 94 74  56 20 5  152 115 94  254 217 202
241 201 188  245 211 192  241 201 188  251 209 192  241 201 188  134 94 74
56 20 5  134 94 74  225 198 173  254 217 202  254 217 202  254 217 202
245 206 192  153 127 124  56 20 5  111 49 45  225 198 173  252 210 197
245 206 192  246 212 198  246 212 198  249 232 211  134 94 74  66 37 10
82 47 21  82 47 21  114 75 47  114 75 47  153 127 124  225 198 173
251 247 211  254 248 208  248 243 206  252 252 211  252 252 211  255 250 211
255 252 211  255 250 211  254 243 201  251 230 182  240 219 178  232 203 157
240 207 160  235 197 150  232 188 141  235 191 131  234 188 118  236 175 114
236 175 114  234 169 103  239 161 110  239 161 110
238 178 122  238 178 122  236 181 132  238 178 122  223 169 124  218 165 108
223 169 124  236 181 132  232 188 141  249 210 159  247 219 167  251 230 182
251 237 192  254 248 208  250 253 215  254 248 208  254 243 206  254 248 208
250 253 215  250 253 215  250 253 215  186 177 183  74 54 47  56 20 5
73 27 7  56 20 5  66 37 10  66 37 10  56 20 5  134 94 74
245 205 166  230 186 157  241 197 168  249 206 180  252 210 197  225 198 173
86 40 34  56 20 5  152 115 94  227 183 166  245 206 192  245 206 192
213 174 145  114 75 47  56 20 5  152 115 94  254 217 202  245 206 192
245 211 192  240 207 184  251 209 192  245 206 192  245 206 192  252 210 197
152 115 94  56 20 5  82 37 31  134 94 74  153 127 124  152 115 94
86 40 34  56 20 5  114 75 47  227 183 166  254 217 202  245 206 192
252 210 197  245 211 192  246 212 198  249 232 211  152 115 94  56 20 5
66 37 10  66 37 10  66 37 10  56 20 5  66 37 10  70 46 26
153 127 124  255 250 211  249 248 211  250 253 215  250 253 215  250 253 215
255 252 211  255 250 211  255 250 211  254 248 208  254 243 206  253 234 194
253 234 194  251 230 182  253 226 175  250 211 150  249 201 140  248 194 131
249 201 140  247 191 119  236 175 114  236 175 114
250 211 150  250 211 150  250 211 150  250 211 150  249 210 159  250 211 150
235 191 131  224 179 123  224 179 123  236 198 141  240 207 160  240 219 178
245 226 181  254 243 206  255 252 211  251 247 211  255 250 211  254 248 208
250 253 215  250 253 215  225 198 173  57 27 21  66 37 10  82 47 21
114 75 47  185 132 113  185 132 113  185 132 113  185 132 113  205 150 129
247 200 165  230 186 157  241 197 168  249 211 182  240 207 184  249 210 189
240 198 177  134 94 74  56 20 5  73 28 22  114 75 47  111 49 45
56 20 5  73 28 22  153 127 124  246 212 198  246 212 198  240 205 192
245 206 192  245 211 192  245 206 192  245 206 192  241 201 188  252 210 197
254 217 202  196 161 137  114 75 47  69 36 25  73 27 7  73 27 7
111 49 45  185 132 113  245 206 192  252 210 197  249 202 188  249 202 188
251 209 192  245 206 192  246 212 198  253 228 204  227 183 166  196 161 137
196 161 137  169 153 133  153 127 124  134 94 74  87 47 22  66 37 10
66 37 10  169 153 133  250 253 215  250 253 215  250 253 215  255 252 211
255 252 211  255 252 211  255 250 211  248 243 206  254 243 206  253 237 196
253 234 194  253 233 187  253 226 175  236 198 141  235 191 131  248 194 131
248 194 131  248 194 131  248 194 131  248 194 131
236 175 114  236 175 114  238 178 122  238 178 122  235 191 131  250 211 150
249 210 159  249 210 159  236 198 141  223 182 134  235 197 150  240 210 173
253 230 191  254 243 201  254 248 208  255 250 211  255 252 211  255 250 211
251 247 211  251 247 211  109 93 73  57 27 21  111 49 45  212 157 140
249 206 180  249 206 180  250 206 166  247 200 165  247 200 165  241 192 159
233 185 150  230 186 157  241 197 168  240 198 177  249 210 189  240 207 184
245 211 192  254 217 202  196 161 137  134 94 74  114 75 47  114 75 47
152 115 94  226 174 158  254 217 202  245 211 192  240 205 192  245 211 192
245 206 192  240 207 184  245 206 192  245 206 192  251 209 192  245 206 192
241 201 188  254 217 202  252 210 197  240 198 177  226 174 158  227 183 166
245 206 192  254 217 202  245 211 192  240 207 184  245 206 192  245 211 192
249 202 188  249 210 189  245 211 192  245 211 192  254 217 202  253 228 204
253 228 204  253 228 204  253 228 204  253 228 204  225 198 173  114 75 47
69 36 25  70 46 26  239 228 204  250 253 215  250 253 215  255 250 211
255 252 211  255 250 211  254 243 206  254 243 206  248 243 206  246 237 196
253 230 191  253 233 187  253 226 175  236 198 141  235 191 131  234 188 118
234 188 118  234 188 118  234 188 118  247 191 119
236 175 114  236 175 114  236 175 114  236 175 114  236 175 114  224 179 123
235 191 131  250 211 150  252 220 166  247 197 150  232 188 141  240 207 160
252 220 180  253 234 194  254 248 208  255 250 211  255 252 211  251 247 211
250 253 215  225 198 173  70 46 26  66 37 10  185 132 113  249 210 189
223 175 146  223 175 146  215 171 128  223 175 146  215 171 128  223 164 136
223 175 146  230 186 157  241 197 168  240 207 184  240 207 184  245 211 192
240 211 193  240 211 193  254 217 202  254 217 202  252 210 197  251 209 192
254 217 202  252 210 197  249 202 188  245 206 192  245 211 192  245 206 192
245 211 192  254 217 202  254 217 202  252 210 197  245 206 192  245 206 192
245 206 192  245 206 192  245 206 192  245 206 192  254 217 202  252 210 197
245 206 192  241 201 188  245 206 192  245 211 192  240 207 184  245 211 192
240 198 177  249 210 189  240 207 184  245 211 192  245 206 192  245 211 192
240 211 193  246 212 198  240 205 192  246 208 197  249 232 211  225 198 173
86 40 34  66 37 10  169 153 133  250 253 215  251 247 211  255 250 211
255 252 211  252 247 205  248 243 206  250 243 201  246 237 196  251 237 192
253 233 187  253 226 175  250 211 150  234 188 118  247 191 119  234 188 118
234 188 118  234 188 118  234 188 118  234 188 118
239 161 110  234 169 103  234 169 103  236 175 114  236 175 114  236 175 114
236 175 114  238 178 122  249 201 140  252 220 166  249 210 159  232 191 150
240 210 173  253 230 191  255 250 211  254 248 208  252 252 211  249 248 211
250 253 215  213 174 145  66 37 10  87 47 22  223 175 146  233 185 150
223 164 136  215 171 128  215 171 128  223 164 136  223 164 136  223 164 136
233 171 146  230 186 157  241 197 168  249 206 180  249 210 189  240 207 184
245 211 192  245 211 192  240 205 192  241 201 188  245 211 192  241 201 188
245 206 192  241 201 188  245 206 192  245 206 192  245 206 192  254 217 202
240 198 177  169 153 133  185 132 113  227 183 166  254 217 202  245 206 192
245 206 192  245 206 192  245 206 192  245 206 192  241 201 188  245 206 192
251 209 192  245 206 192  245 211 192  245 211 192  240 207 184  240 207 184
251 209 192  249 202 188  249 206 180  249 210 189  251 209 192  240 207 184
240 211 193  240 211 193  240 205 192  254 217 202  254 217 202  253 228 204
109 93 73  56 20 5  152 115 94  250 253 215  251 247 211  250 253 215
250 253 215  247 247 204  246 237 196  246 237 196  253 233 187  251 230 182
247 219 167  236 198 141  234 188 118  247 191 119  234 188 118  247 191 119
247 191 119  248 194 131  248 194 131  235 191 131
239 161 110  239 161 110  239 161 110  239 161 110  239 161 110  236 175 114
236 175 114  238 178 122  236 181 132  247 197 150  253 226 175  240 207 160
232 191 150  240 219 178  246 237 196  255 250 211  253 248 208  253 248 208
250 253 215  205 170 140  66 37 10  87 47 22  223 175 146  233 185 150
215 171 128  215 171 128  223 164 136  223 164 136  223 164 136  223 164 136
233 171 146  237 181 145  241 183 160  241 183 160  249 195 178  251 209 192
249 202 188  240 207 184  241 201 188  245 211 192  241 201 188  251 209 192
245 206 192  241 201 188  251 209 192  249 202 188  254 217 202  213 174 145
86 40 34  134 94 74  134 94 74  86 40 34  196 161 137  254 217 202
245 206 192  245 206 192  245 206 192  245 206 192  251 209 192  241 201 188
245 206 192  245 206 192  241 201 188  249 210 189  249 210 189  249 195 178
241 186 168  241 186 168  249 202 188  249 202 188  251 209 192  245 206 192
240 205 192  246 212 198  246 208 197  246 212 198  246 212 198  253 228 204
109 93 73  57 27 21  152 115 94  250 253 215  250 253 215  250 253 215
249 248 211  248 243 206  246 237 196  251 237 192  252 226 181  247 219 167
235 191 131  234 188 118  234 188 118  247 191 119  247 191 119  247 191 119
250 211 150  252 220 166  249 210 159  249 210 159
234 158 103  234 169 103  239 161 110  239 161 110  239 161 110  236 175 114
236 175 114  236 175 114  224 179 123  235 191 131  249 210 159  252 220 175
232 191 150  240 210 173  247 225 192  255 246 203  255 252 211  253 248 208
255 250 211  225 198 173  66 37 10  82 47 21  196 161 137  230 186 157
215 171 128  223 164 136  223 164 136  223 164 136  223 164 136  223 164 136
233 171 146  224 162 147  224 154 125  214 152 127  224 162 147  241 183 160
249 202 188  251 209 192  254 217 202  245 211 192  245 211 192  245 206 192
251 209 192  251 209 192  249 202 188  249 202 188  251 209 192  114 75 47
152 115 94  253 228 204  253 228 204  205 170 140  86 40 34  240 198 177
252 210 197  245 206 192  245 206 192  245 206 192  251 209 192  241 201 188
251 209 192  252 210 197  252 210 197  251 209 192  249 195 178  233 171 146
214 152 127  224 162 147  241 183 160  249 202 188  249 202 188  249 202 188
245 211 192  240 205 192  240 205 192  240 211 193  254 217 202  240 205 192
114 75 47  57 27 21  153 127 124  250 253 215  250 253 215  250 253 215
248 243 206  246 237 196  247 225 192  245 226 181  253 226 175  249 201 140
234 188 118  247 191 119  247 191 119  235 177 103  247 191 119  234 188 118
249 201 140  249 210 159  249 210 159  240 207 160
234 158 103  234 169 103  234 169 103  234 169 103  234 169 103  236 175 114
236 175 114  238 178 122  224 179 123  224 179 123  235 191 131  252 220 166
252 220 175  251 230 182  251 237 192  254 250 202  254 248 208  255 250 211
250 253 215  247 225 192  87 47 22  76 40 10  134 94 74  230 186 157
223 175 146  223 175 146  223 175 146  223 164 136  233 171 146  224 162 147
223 164 136  214 152 127  216 131 108  216 131 108  214 152 127  233 171 146
249 202 188  227 183 166  134 94 74  226 174 158  254 217 202  241 201 188
251 209 192  249 202 188  251 209 192  251 209 192  240 198 177  86 40 34
225 198 173  252 210 197  245 206 192  254 217 202  86 40 34  205 170 140
254 217 202  241 201 188  251 209 192  245 206 192  241 201 188  251 209 192
252 210 197  152 115 94  169 153 133  252 210 197  241 183 160  214 152 127
216 131 108  216 131 108  224 162 147  249 195 178  249 202 188  254 217 202
254 217 202  246 212 198  254 217 202  253 228 204  253 228 204  152 115 94
69 36 25  69 36 25  225 198 173  250 253 215  251 247 211  255 252 211
250 243 201  245 226 181  247 220 179  252 220 175  250 211 150  234 188 118
234 188 118  235 177 103  235 177 103  236 175 114  236 175 114  236 175 114
235 191 131  239 206 150  249 210 159  239 206 150
234 158 103  234 169 103  234 169 103  234 169 103  234 169 103  234 169 103
236 175 114  248 194 131  249 201 140  235 191 131  249 201 140  252 220 166
249 210 159  247 219 167  245 226 181  251 237 192  255 246 203  255 252 211
248 243 206  250 253 215  153 127 124  66 37 10  82 47 21  114 75 47
152 115 94  185 132 113  205 150 129  205 150 129  185 132 113  212 157 140
223 164 136  214 152 127  216 131 108  216 131 108  214 152 127  224 162 147
249 202 188  226 174 158  73 27 7  86 40 34  226 174 158  254 217 202
241 201 188  249 202 188  251 209 192  241 201 188  254 217 202  109 93 73
152 115 94  252 210 197  254 217 202  185 132 113  111 49 45  241 201 188
245 206 192  251 209 192  245 206 192  245 206 192  252 210 197  251 209 192
134 94 74  56 20 5  152 115 94  254 217 202  233 171 146  214 152 127
216 131 108  216 131 108  224 162 147  249 195 178  249 202 188  196 161 137
196 161 137  205 170 140  213 174 145  153 127 124  109 93 73  69 36 25
57 27 21  134 94 74  250 253 215  250 253 215  254 248 208  251 237 192
245 226 181  247 219 167  252 220 166  250 211 150  238 178 122  236 175 114
235 177 103  235 177 103  235 177 103  235 177 103  235 177 103  236 175 114
225 175 108  235 191 131  239 206 150  239 206 150
234 158 103  234 158 103  234 158 103  234 169 103  239 161 110  234 169 103
234 169 103  236 175 114  247 191 119  250 211 150  248 194 131  236 181 132
244 187 141  235 197 150  241 220 167  253 233 187  254 243 201  255 252 211
249 248 211  250 253 215  251 247 211  109 93 73  56 20 5  66 37 10
76 40 10  87 47 22  87 32 19  87 32 19  82 29 16  185 132 113
233 171 146  223 164 136  214 152 127  214 152 127  224 162 147  241 186 168
251 209 192  254 217 202  152 115 94  56 20 5  86 40 34  205 170 140
254 217 202  245 206 192  245 206 192  240 207 184  246 212 198  225 198 173
114 75 47  114 75 47  114 75 47  111 49 45  205 170 140  254 217 202
245 206 192  241 201 188  245 206 192  254 217 202  240 198 177  114 75 47
66 37 10  111 49 45  227 183 166  252 210 197  241 186 168  224 162 147
214 152 127  224 162 147  226 174 158  252 210 197  240 198 177  69 36 25
66 37 10  70 46 26  66 37 10  66 37 10  66 37 10  66 37 10
109 93 73  249 232 211  255 252 211  254 248 208  253 237 196  247 219 167
239 206 150  249 201 140  248 194 131  236 175 114  234 169 103  235 177 103
235 177 103  235 177 103  235 177 103  234 169 103  235 177 103  236 175 114
225 175 108  235 191 131  249 201 140  236 198 141
225 150 100  225 150 100  225 150 100  234 158 103  234 158 103  234 158 103
239 161 110  236 175 114  238 178 122  236 175 114  236 175 114  238 178 122
236 181 132  247 197 150  239 206 150  241 220 167  251 237 192  253 247 203
252 252 211  249 248 211  251 247 211  251 247 211  169 153 133  114 75 47
87 47 22  76 40 10  82 29 16  87 47 22  82 29 16  152 115 94
233 171 146  233 171 146  233 171 146  241 183 160  241 186 168  249 202 188
251 209 192  245 211 192  240 198 177  111 49 45  69 36 25  69 36 25
152 115 94  241 201 188  254 217 202  252 210 197  245 206 192  245 211 192
245 206 192  213 174 145  196 161 137  245 206 192  254 217 202  241 201 188
245 206 192  254 217 202  252 210 197  196 161 137  111 49 45  66 37 10
66 37 10  196 161 137  254 217 202  240 207 184  249 206 180  249 195 178
241 186 168  241 186 168  249 202 188  253 228 204  213 174 145  69 36 25
70 46 26  69 36 25  70 46 26  82 47 21  109 93 73  196 161 137
251 247 211  250 253 215  255 250 211  254 243 201  253 226 175  239 206 150
235 191 131  236 175 114  234 169 103  234 169 103  234 169 103  235 177 103
247 191 119  236 175 114  234 169 103  235 177 103  225 161 94  234 169 103
225 175 108  235 191 131  249 201 140  236 198 141
214 148 86  214 148 86  214 148 86  225 147 96  234 158 103  234 158 103
231 160 111  239 161 110  239 161 110  236 175 114  238 178 122  238 178 122
238 178 122  236 181 132  236 198 141  249 210 159  253 226 175  252 237 187
254 248 208  255 250 211  254 243 206  255 250 211  255 250 211  253 237 196
230 204 165  213 174 145  213 174 145  114 75 47  73 27 7  134 94 74
226 174 158  223 175 146  239 189 150  241 195 163  249 211 182  249 206 180
249 210 189  245 206 192  254 217 202  196 161 137  69 36 25  82 47 21
66 37 10  111 49 45  185 132 113  240 198 177  254 217 202  254 217 202
254 217 202  254 217 202  254 217 202  254 217 202  252 210 197  254 217 202
249 210 189  196 161 137  134 94 74  66 37 10  82 47 21  66 37 10
134 94 74  254 217 202  240 207 184  249 210 189  249 211 182  249 206 180
249 210 189  245 206 192  252 210 197  249 232 211  153 127 124  57 27 21
74 54 47  213 174 145  225 198 173  235 226 192  250 253 215  250 253 215
250 253 215  251 247 211  255 252 211  252 237 187  249 210 159  235 191 131
236 175 114  234 169 103  234 169 103  234 169 103  234 169 103  238 178 122
248 194 131  248 194 131  234 169 103  225 161 94  225 161 94  225 161 94
225 162 107  238 178 122  244 187 141  244 187 141
210 155 97  214 148 86  214 148 86  214 148 86  214 148 86  225 147 96
234 158 103  231 160 111  239 161 110  234 169 103  239 161 110  238 178 122
238 178 122  236 181 132  244 187 141  247 197 150  240 207 160  251 230 182
254 243 201  254 243 206  254 248 208  248 243 206  250 243 201  254 243 201
254 243 201  253 237 196  254 243 206  152 115 94  73 27 7  111 49 45
212 157 140  223 175 146  233 185 150  241 197 168  240 198 177  245 211 192
245 206 192  241 201 188  251 209 192  254 217 202  134 94 74  73 28 22
86 40 34  69 36 25  73 28 22  86 40 34  134 94 74  185 132 113
212 157 140  226 174 158  227 183 166  226 174 158  205 150 129  152 115 94
114 75 47  73 27 7  82 29 16  87 47 22  69 36 25  86 40 34
241 201 188  245 211 192  240 207 184  249 210 189  240 207 184  249 210 189
240 207 184  246 212 198  246 212 198  249 232 211  109 93 73  56 20 5
109 93 73  250 253 215  250 253 215  250 253 215  250 253 215  250 253 215
250 253 215  250 253 215  254 250 202  241 220 167  235 191 131  236 175 114
234 169 103  234 158 103  234 158 103  234 155 89  225 161 94  236 175 114
248 194 131  236 175 114  225 161 94  234 155 89  234 155 89  225 161 94
225 161 94  236 175 114  238 178 122  238 178 122
249 201 140  248 194 131  248 194 131  235 191 131  213 158 106  214 148 86
210 155 97  225 162 107  239 161 110  239 161 110  234 169 103  236 175 114
238 178 122  238 178 122  244 187 141  235 191 131  235 197 150  241 220 167
253 233 187  255 246 203  255 250 211  252 252 211  252 247 205  246 237 196
246 237 196  247 225 192  254 230 204  205 170 140  76 40 10  87 47 22
185 132 113  233 171 146  226 174 158  241 197 168  240 207 184  240 207 184
245 211 192  245 206 192  245 206 192  252 210 197  227 183 166  69 36 25
82 47 21  82 47 21  86 40 34  87 32 19  82 29 16  73 27 7
82 29 16  87 32 19  82 37 31  73 28 22  82 29 16  82 29 16
82 29 16  87 47 22  93 40 21  86 40 34  73 28 22  153 127 124
254 217 202  245 206 192  249 210 189  240 207 184  245 211 192  240 207 184
245 211 192  246 208 197  254 217 202  241 201 188  74 54 47  57 27 21
169 153 133  250 253 215  251 247 211  255 250 211  255 252 211  255 250 211
253 248 208  255 246 203  253 226 175  236 198 141  236 175 114  234 169 103
225 156 82  225 156 82  225 156 82  225 156 82  225 156 82  219 159 89
234 169 103  225 161 94  234 155 89  225 156 82  234 155 89  225 156 82
225 156 82  225 156 82  225 156 82  225 161 94
225 162 107  225 175 108  238 178 122  248 194 131  249 201 140  238 178 122
214 148 86  225 147 96  234 158 103  234 158 103  239 161 110  239 161 110
236 175 114  231 160 111  238 178 122  236 181 132  232 188 141  232 191 150
240 210 173  251 237 192  248 243 206  248 243 206  247 247 204  250 243 201
246 237 196  251 237 192  246 237 196  247 225 192  114 75 47  73 27 7
134 94 74  226 174 158  223 175 146  230 186 157  240 198 177  240 207 184
246 212 198  245 211 192  246 212 198  245 206 192  254 217 202  134 94 74
73 28 22  93 40 21  93 40 21  119 40 20  168 52 33  168 52 33
119 40 20  119 40 20  87 32 19  119 40 20  119 40 20  119 40 20
119 40 20  119 40 20  93 40 21  82 37 31  86 40 34  225 198 173
251 209 192  249 210 189  249 206 180  249 210 189  245 211 192  240 207 184
246 212 198  246 212 198  249 232 211  153 127 124  57 27 21  74 54 47
240 211 193  250 253 215  255 250 211  255 250 211  255 252 211  255 250 211
254 248 208  253 233 187  239 206 150  224 179 123  225 161 94  234 155 89
225 147 82  225 156 82  225 156 82  225 156 82  234 155 89  225 147 82
225 147 82  225 156 82  225 156 82  225 147 82  225 147 82  225 156 82
225 156 82  225 147 82  225 147 82  225 147 82
225 147 96  225 150 100  225 150 100  225 150 100  236 175 114  249 201 140
238 178 122  214 148 86  225 150 100  234 158 103  239 161 110  234 158 103
231 160 111  231 160 111  225 162 107  213 158 106  215 171 128  232 203 157
247 220 179  251 237 192  254 248 208  255 252 211  253 248 208  254 248 208
255 246 203  251 237 192  247 225 192  254 230 204  152 115 94  76 40 10
86 40 34  212 157 140  226 174 158  226 174 158  241 197 168  240 207 184
240 207 184  240 207 184  245 206 192  245 211 192  254 217 202  196 161 137
73 27 7  93 40 21  119 40 20  168 52 33  205 26 26  205 26 26
205 26 26  168 52 33  119 40 20  168 52 33  205 26 26  205 26 26
205 26 26  168 52 33  119 40 20  82 29 16  152 115 94  254 217 202
240 207 184  240 207 184  251 209 192  249 202 188  249 210 189  245 211 192
240 207 184  254 217 202  246 212 198  114 75 47  57 27 21  134 94 74
250 253 215  250 253 215  250 253 215  250 253 215  255 252 211  255 250 211
253 237 196  240 207 160  223 182 134  218 165 108  219 159 89  225 147 82
225 156 82  225 147 82  218 139 75  225 147 82  225 156 82  225 147 82
225 147 82  225 156 82  225 147 82  225 147 82  225 161 94  225 161 94
225 161 94  219 159 89  219 146 86  214 148 86
225 147 96  225 147 96  225 147 96  234 158 103  225 150 100  225 162 107
248 194 131  238 178 122  214 148 86  225 150 100  225 150 100  234 158 103
231 160 111  225 162 107  210 155 97  225 175 108  249 210 159  252 220 166
252 220 175  240 219 178  245 226 181  255 246 203  255 252 211  254 248 208
255 246 203  254 243 201  253 237 196  253 237 196  225 198 173  82 47 21
73 28 22  152 115 94  230 186 157  223 175 146  230 186 157  241 197 168
240 207 184  245 211 192  249 210 189  249 210 189  245 211 192  240 198 177
86 40 34  93 40 21  168 52 33  205 26 26  205 26 26  205 26 26
205 26 26  205 26 26  205 26 26  205 26 26  205 26 26  205 26 26
205 26 26  205 26 26  119 40 20  82 29 16  196 161 137  254 217 202
240 207 184  240 207 184  249 202 188  249 210 189  249 210 189  240 207 184
240 211 193  249 232 211  185 132 113  66 37 10  70 46 26  225 198 173
250 253 215  251 247 211  250 253 215  250 253 215  250 253 215  254 248 208
253 233 187  253 226 175  249 212 166  249 201 140  236 175 114  219 159 89
219 146 86  225 147 82  225 147 82  225 147 82  218 139 75  225 147 82
225 147 82  225 147 82  218 139 75  234 155 89  234 169 103  234 169 103
234 169 103  234 169 103  225 161 94  225 161 94
225 147 96  234 158 103  225 150 100  225 150 100  225 150 100  214 148 86
231 160 111  248 194 131  225 147 96  211 137 84  219 146 86  225 147 96
225 150 100  214 148 86  225 162 107  250 211 150  244 187 141  236 181 132
236 181 132  235 197 150  240 207 160  245 226 181  254 243 201  254 248 208
254 250 202  254 250 202  255 246 203  253 237 196  251 247 211  152 115 94
69 36 25  86 40 34  212 157 140  233 185 150  223 175 146  230 186 157
240 198 177  240 207 184  249 206 180  249 206 180  249 210 189  251 209 192
134 94 74  87 32 19  168 52 33  205 26 26  205 26 26  205 26 26
205 26 26  205 26 26  205 26 26  205 26 26  205 26 26  205 26 26
205 26 26  205 26 26  119 40 20  93 40 21  225 198 173  246 212 198
245 206 192  249 210 189  249 202 188  249 210 189  249 211 182  245 211 192
254 217 202  225 198 173  86 40 34  66 37 10  134 94 74  250 253 215
250 253 215  250 253 215  250 253 215  250 253 215  254 243 206  253 237 196
252 220 175  252 220 166  249 212 166  249 210 159  252 220 166  249 201 140
218 165 108  214 148 86  225 147 82  218 139 75  218 139 75  225 147 82
218 139 75  218 139 75  218 139 75  225 147 82  234 158 103  225 161 94
225 162 107  225 162 107  225 162 107  225 162 107
225 147 96  219 146 86  225 147 96  225 147 96  225 150 100  225 150 100
225 147 96  236 175 114  236 175 114  214 148 86  225 150 100  211 137 84
211 137 84  225 150 100  249 201 140  240 168 122  231 160 111  240 168 122
238 178 122  236 181 132  236 198 141  240 207 160  252 226 181  253 237 196
255 246 203  254 250 202  254 248 208  252 247 205  255 250 211  235 226 192
70 46 26  66 37 10  114 75 47  230 186 157  223 175 146  230 186 157
227 183 166  240 198 177  249 206 180  249 211 182  249 202 188  254 217 202
152 115 94  82 29 16  168 52 33  205 26 26  205 26 26  205 26 26
205 26 26  205 26 26  205 26 26  205 26 26  205 26 26  205 26 26
205 26 26  205 26 26  119 40 20  114 75 47  252 210 197  240 205 192
240 205 192  245 206 192  245 211 192  240 207 184  240 207 184  245 211 192
253 228 204  134 94 74  69 36 25  70 46 26  225 198 173  255 252 211
252 252 211  250 253 215  255 250 211  254 243 206  252 226 181  240 207 160
232 188 141  223 182 134  223 182 134  236 181 132  235 191 131  249 201 140
250 211 150  236 175 114  211 137 84  221 135 84  218 139 75  218 139 75
218 139 75  218 139 75  218 139 75  218 139 75  225 147 96  225 161 94
225 162 107  213 158 106  213 158 106  218 165 108
225 147 96  225 147 96  225 147 96  225 147 96  225 147 96  225 150 100
225 150 100  210 155 97  248 194 131  249 201 140  249 201 140  235 191 131
218 165 108  238 178 122  238 178 122  225 154 109  239 161 110  239 161 110
240 168 122  238 178 122  236 181 132  236 198 141  240 207 160  252 220 175
253 234 194  254 243 201  247 247 204  247 247 204  248 243 206  250 253 215
169 153 133  66 37 10  66 37 10  152 115 94  241 186 168  224 162 147
230 186 157  241 197 168  240 198 177  249 206 180  249 202 188  254 217 202
169 153 133  82 29 16  119 40 20  168 52 33  205 26 26  205 26 26
205 26 26  205 26 26  205 26 26  205 26 26  205 26 26  205 26 26
205 26 26  168 52 33  87 32 19  134 94 74  254 217 202  240 205 192
240 205 192  245 211 192  245 211 192  240 211 193  240 211 193  253 228 204
153 127 124  73 28 22  57 27 21  153 127 124  250 253 215  252 252 211
250 253 215  255 252 211  253 237 196  252 220 175  244 187 141  238 178 122
236 175 114  236 175 114  231 160 111  231 160 111  225 162 107  225 175 108
235 191 131  249 201 140  234 169 103  213 132 75  218 139 75  218 139 75
218 139 75  209 139 75  209 139 75  209 139 75  209 139 75  219 146 86
225 162 107  213 158 106  210 155 97  210 155 97
225 147 82  225 147 82  225 147 82  225 147 96  225 147 96  225 147 96
225 147 96  225 150 100  238 178 122  238 178 122  225 175 108  235 191 131
249 201 140  244 187 141  225 162 107  231 160 111  239 161 110  239 161 110
234 158 103  225 162 107  236 175 114  238 178 122  236 181 132  241 195 156
240 210 173  247 225 192  247 247 204  247 247 204  247 247 204  250 253 215
250 253 215  134 94 74  66 37 10  76 40 10  185 132 113  241 186 168
223 175 146  230 186 157  241 195 163  240 198 177  249 202 188  252 210 197
227 183 166  86 40 34  119 40 20  119 40 20  168 52 33  205 26 26
168 52 33  168 52 33  168 52 33  205 26 26  205 26 26  205 26 26
168 52 33  119 40 20  82 29 16  185 132 113  254 217 202  240 205 192
246 212 198  245 211 192  240 207 184  240 207 184  253 228 204  196 161 137
69 36 25  69 36 25  109 93 73  251 247 211  250 253 215  251 247 211
255 250 211  247 225 192  230 204 165  232 188 141  238 178 122  236 175 114
236 175 114  234 169 103  239 161 110  239 161 110  234 158 103  225 162 107
218 165 108  238 178 122  248 194 131  214 148 86  213 132 75  213 132 75
213 132 75  209 139 75  218 139 75  209 139 75  209 139 75  202 133 78
210 155 97  213 158 106  213 158 106  213 158 106
221 135 84  219 146 86  225 147 82  225 147 82  225 147 96  225 147 96
225 147 96  225 147 96  225 162 107  225 162 107  210 155 97  213 158 106
238 178 122  244 187 141  236 175 114  225 154 109  234 158 103  234 158 103
239 161 110  234 158 103  225 150 100  225 162 107  223 169 124  215 171 128
223 187 146  240 210 173  246 237 196  255 252 211  249 248 211  252 252 211
250 253 215  249 232 211  114 75 47  66 37 10  86 40 34  185 132 113
233 193 157  223 175 146  226 174 158  241 197 168  240 198 177  249 202 188
254 217 202  134 94 74  82 29 16  119 40 20  119 40 20  168 52 33
119 40 20  161 91 44  168 52 33  119 40 20  168 52 33  168 52 33
119 40 20  93 40 21  111 49 45  241 201 188  254 217 202  246 208 197
241 201 188  245 206 192  246 212 198  254 217 202  196 161 137  70 46 26
66 37 10  74 54 47  239 228 204  250 253 215  255 250 211  255 252 211
254 243 206  240 219 178  223 182 134  213 158 106  210 155 97  225 162 107
234 169 103  234 169 103  234 158 103  234 158 103  234 158 103  234 158 103
234 158 103  225 162 107  238 178 122  236 175 114  202 133 78  209 139 75
209 139 75  207 128 64  207 128 64  207 128 64  202 133 78  202 133 78
218 165 108  224 179 123  236 181 132  236 181 132
219 146 86  219 146 86  219 146 86  225 147 82  219 146 86  225 147 96
225 147 96  225 147 96  225 150 100  225 150 100  225 150 100  225 150 100
225 150 100  240 168 122  240 168 122  225 150 100  234 158 103  225 150 100
225 147 96  214 148 86  214 148 86  214 148 86  213 158 106  223 182 134
245 205 166  253 230 191  247 225 192  250 243 201  254 248 208  251 247 211
255 250 211  255 250 211  235 226 192  74 54 47  57 27 21  69 36 25
152 115 94  233 193 157  230 186 157  223 175 146  241 186 168  241 197 168
249 206 180  241 186 168  111 49 45  82 29 16  119 40 20  119 40 20
93 40 21  241 186 168  185 132 113  114 75 47  119 40 20  119 40 20
87 32 19  73 28 22  196 161 137  254 217 202  240 205 192  240 205 192
245 206 192  252 210 197  254 217 202  185 132 113  69 36 25  69 36 25
74 54 47  240 207 184  250 253 215  249 248 211  255 250 211  254 243 206
254 230 204  249 225 191  252 220 180  239 206 150  218 165 108  214 148 86
210 155 97  225 162 107  234 169 103  234 158 103  234 155 89  234 155 89
225 150 100  225 150 100  225 150 100  238 178 122  225 162 107  236 175 114
236 175 114  239 161 110  234 155 89  211 137 84  214 148 86  236 175 114
248 194 131  238 178 122  236 175 114  225 162 107
219 146 86  219 146 86  219 146 86  219 146 86  219 146 86  219 146 86
219 146 86  225 147 96  225 147 96  225 147 96  225 150 100  234 158 103
225 150 100  225 150 100  234 158 103  225 150 100  225 150 100  219 146 86
211 137 84  211 137 84  214 148 86  213 158 106  232 188 141  249 212 166
247 220 179  240 219 178  253 233 187  251 237 192  246 237 196  250 243 201
254 248 208  253 248 208  250 253 215  235 226 192  114 75 47  69 36 25
76 40 10  114 75 47  213 174 145  241 186 168  226 174 158  230 186 157
233 193 157  249 206 180  226 174 158  111 49 45  73 27 7  82 29 16
87 47 22  249 206 180  185 132 113  152 115 94  111 49 45  82 29 16
82 37 31  169 153 133  254 217 202  249 202 188  240 207 184  249 210 189
253 228 204  225 198 173  134 94 74  73 28 22  82 37 31  114 75 47
240 211 193  250 253 215  251 247 211  253 248 208  246 237 196  247 225 192
245 226 181  247 220 179  247 220 179  252 226 181  253 226 175  235 197 150
218 165 108  211 137 84  214 148 86  225 147 96  234 155 89  234 158 103
225 147 96  225 150 100  225 150 100  239 161 110  249 201 140  248 194 131
248 194 131  248 194 131  247 191 119  238 178 122  238 178 122  236 181 132
231 160 111  225 150 100  211 137 84  211 137 84
221 135 84  221 135 84  219 146 86  219 146 86  219 146 86  219 146 86
219 146 86  219 146 86  225 147 96  225 147 96  225 147 96  225 150 100
225 150 100  225 147 96  225 150 100  219 146 86  219 146 86  214 148 86
211 137 84  210 155 97  235 191 131  249 210 159  249 212 166  249 212 166
240 210 173  240 219 178  240 219 178  240 219 178  245 226 181  251 237 192
251 237 192  250 243 201  249 248 211  250 253 215  249 232 211  114 75 47
69 36 25  73 28 22  86 40 34  152 115 94  226 174 158  227 183 166
230 186 157  241 186 168  240 198 177  227 183 166  134 94 74  87 47 22
87 47 22  225 198 173  185 132 113  185 132 113  114 75 47  114 75 47
205 170 140  254 217 202  245 206 192  254 217 202  253 222 192  240 198 177
153 127 124  70 46 26  69 36 25  65 32 46  65 32 46  152 115 94
243 237 221  251 247 211  246 237 196  251 237 192  245 226 181  240 219 178
240 219 178  240 219 178  240 219 178  241 220 167  240 210 173  252 220 175
249 212 166  247 197 150  210 155 97  214 148 86  214 148 86  219 146 86
225 147 96  225 147 96  225 147 96  225 150 100  240 168 122  225 162 107
225 162 107  225 150 100  234 158 103  238 178 122  236 181 132  213 158 106
211 137 84  221 135 84  221 135 84  221 135 84
221 135 84  221 135 84  221 135 84  221 135 84  221 135 84  219 146 86
219 146 86  225 147 82  225 147 96  225 147 96  225 147 96  225 147 96
225 147 96  219 146 86  219 146 86  211 137 84  211 137 84  210 155 97
223 169 124  236 198 141  240 207 160  239 206 150  240 207 160  240 207 160
240 207 160  240 207 160  240 210 173  240 210 173  240 219 178  240 219 178
245 226 181  253 234 194  247 225 192  255 250 211  213 174 145  86 40 34
74 54 47  74 54 47  69 36 25  73 28 22  86 40 34  152 115 94
212 157 140  241 186 168  241 197 168  240 198 177  252 210 197  152 115 94
76 40 10  114 75 47  114 75 47  152 115 94  114 75 47  196 161 137
249 232 211  246 212 198  245 211 192  227 183 166  152 115 94  111 49 45
57 27 21  65 32 46  65 32 46  75 59 99  96 63 76  57 27 21
109 93 73  240 211 193  253 230 191  240 219 178  247 220 179  240 219 178
240 210 173  241 220 167  241 220 167  241 220 167  240 210 173  240 210 173
250 206 166  250 206 166  249 210 159  224 179 123  210 155 97  211 137 84
219 146 86  225 147 96  211 137 84  225 147 96  225 150 100  211 137 84
211 137 84  225 147 96  211 137 84  219 146 86  231 160 111  231 160 111
221 135 84  221 135 84  221 135 84  221 135 84
211 137 84  211 137 84  221 135 84  221 135 84  221 135 84  221 135 84
221 135 84  221 135 84  221 135 84  225 147 96  225 147 96  219 146 86
211 137 84  211 137 84  202 133 78  211 137 84  213 158 106  236 181 132
247 197 150  239 206 150  235 197 150  232 203 157  232 203 157  235 197 150
241 199 159  241 199 159  232 203 157  232 203 157  230 204 165  230 204 165
240 210 173  240 210 173  253 237 196  205 170 140  57 27 21  74 54 47
153 127 124  110 100 142  96 63 76  65 32 46  65 32 46  69 36 25
86 40 34  114 75 47  152 115 94  196 161 137  185 132 113  86 40 34
185 132 113  241 201 188  205 170 140  185 132 113  169 153 133  114 75 47
196 161 137  152 115 94  114 75 47  82 37 31  57 27 21  65 32 46
65 32 46  61 49 77  77 63 127  134 120 180  143 144 183  110 100 142
65 32 46  114 75 47  240 210 173  247 220 179  240 210 173  240 219 178
241 220 167  241 220 167  241 220 167  240 210 173  240 210 173  240 210 173
249 211 172  249 210 159  239 206 150  235 191 131  236 175 114  219 159 89
211 137 84  211 137 84  214 148 86  211 137 84  219 146 86  211 137 84
211 137 84  219 146 86  221 135 84  221 135 84  219 146 86  225 150 100
221 135 84  221 135 84  221 135 84  213 132 75
221 135 84  213 132 75  221 135 84  221 135 84  221 135 84  221 135 84
221 135 84  221 135 84  221 135 84  221 135 84  221 135 84  211 137 84
202 133 78  202 133 78  210 155 97  218 165 108  232 188 141  232 188 141
232 191 150  232 191 150  232 191 150  235 197 150  235 197 150  235 197 150
233 193 157  233 193 157  233 193 157  232 203 157  232 203 157  232 203 157
232 203 157  240 210 173  225 198 173  74 54 47  65 32 46  134 120 180
143 144 183  127 133 226  134 120 180  77 63 127  75 59 99  61 49 77
65 32 46  69 36 25  73 28 22  69 36 25  82 37 31  213 174 145
251 209 192  185 132 113  153 127 124  152 115 94  185 132 113  134 94 74
56 20 5  66 37 10  69 36 25  65 32 46  61 49 77  75 59 99
77 63 127  102 101 181  127 133 226  125 121 217  125 121 217  127 133 226
110 100 142  57 27 21  152 115 94  252 220 180  240 210 173  240 210 173
240 207 160  240 207 160  240 207 160  245 205 166  245 205 166  240 207 160
240 207 160  239 206 150  234 188 118  234 188 118  234 188 118  236 175 114
225 161 94  214 148 86  209 139 75  211 137 84  211 137 84  211 137 84
221 135 84  221 135 84  221 135 84  221 135 84  221 135 84  221 135 84
221 135 84  221 135 84  213 132 75  213 124 75
221 135 84  213 132 75  213 132 75  221 135 84  221 135 84  221 135 84
221 135 84  213 132 75  218 139 75  213 132 75  213 132 75  211 137 84
211 137 84  210 155 97  225 162 107  236 181 132  223 182 134  223 182 134
223 182 134  232 188 141  223 187 146  223 187 146  223 187 146  232 191 150
223 187 146  232 191 150  232 191 150  235 197 150  232 191 150  232 191 150
235 197 150  245 205 166  152 115 94  57 27 21  110 100 142  143 144 183
125 121 217  127 133 226  127 133 226  143 144 183  134 120 180  110 100 142
75 59 99  61 49 77  61 49 77  65 32 46  96 63 76  227 183 166
152 115 94  152 115 94  205 150 129  227 183 166  196 161 137  152 115 94
70 46 26  74 54 47  61 49 77  75 59 99  110 100 142  134 120 180
127 133 226  127 133 226  125 121 217  127 133 226  127 133 226  125 121 217
143 144 183  75 59 99  69 36 25  223 187 146  247 220 179  232 203 157
240 207 160  240 207 160  240 207 160  240 207 160  242 198 164  240 207 160
240 207 160  236 198 141  225 175 108  225 175 108  235 177 103  247 191 119
236 175 114  225 161 94  219 146 86  211 137 84  213 132 75  213 132 75
213 132 75  211 137 84  221 135 84  221 135 84  213 124 75  221 135 84
221 135 84  213 124 75  213 124 75  213 124 75
213 124 75  213 132 75  213 132 75  213 132 75  213 132 75  213 132 75
213 132 75  213 132 75  213 132 75  213 132 75  202 133 78  211 137 84
213 158 106  232 165 122  224 179 123  224 179 123  223 182 134  215 171 128
215 171 128  223 182 134  223 182 134  223 182 134  223 182 134  223 182 134
232 188 141  223 182 134  223 182 134  232 188 141  232 188 141  232 191 150
232 188 141  241 199 159  134 94 74  65 32 46  134 120 180  143 144 183
134 120 180  134 120 180  134 120 180  110 100 142  134 120 180  143 144 183
143 144 183  134 120 180  77 63 127  75 59 99  74 54 47  86 40 34
185 132 113  152 115 94  169 153 133  152 115 94  152 115 94  153 127 124
96 63 76  75 59 99  110 100 142  125 121 217  127 133 226  127 133 226
143 144 183  134 120 180  134 120 180  134 120 180  134 120 180  143 144 183
143 144 183  110 100 142  65 32 46  185 132 113  252 220 180  240 207 160
240 207 160  240 207 160  240 207 160  241 199 159  230 204 165  242 198 164
239 206 150  235 191 131  218 165 108  234 169 103  234 169 103  235 177 103
236 175 114  236 175 114  234 169 103  225 161 94  209 139 75  209 139 75
202 133 78  213 132 75  213 132 75  213 124 75  213 124 75  213 124 75
213 124 75  213 124 75  213 124 75  213 124 75
213 124 75  213 124 75  213 132 75  213 124 75  213 132 75  213 132 75
213 132 75  202 133 78  201 127 63  202 133 78  214 148 86  225 150 100
225 162 107  223 169 124  223 169 124  223 169 124  223 169 124  215 171 128
215 171 128  215 171 128  223 182 134  223 169 124  223 169 124  224 179 123
236 181 132  236 181 132  224 179 123  236 181 132  236 181 132  236 181 132
236 181 132  235 197 150  114 75 47  82 37 31  110 100 142  77 63 127
75 59 99  61 49 77  61 49 77  61 49 77  61 49 77  75 59 99
110 100 142  143 144 183  134 120 180  77 63 127  74 54 47  185 132 113
213 174 145  152 115 94  226 174 158  152 115 94  111 49 45  227 183 166
153 127 124  61 49 77  134 120 180  127 133 226  125 121 217  110 100 142
77 63 127  75 59 99  75 59 99  75 59 99  75 59 99  77 63 127
110 100 142  110 100 142  69 36 25  152 115 94  249 211 172  232 203 157
232 203 157  240 207 160  232 203 157  233 193 157  233 193 157  242 198 164
241 195 156  236 181 132  218 165 108  234 169 103  225 161 94  225 161 94
234 169 103  234 169 103  235 177 103  234 169 103  225 161 94  214 148 86
213 132 75  201 127 63  213 124 75  213 124 75  213 124 75  213 124 75
213 124 75  213 124 75  213 124 75  213 124 75
213 124 75  213 124 75  213 124 75  213 124 75  213 132 75  207 128 64
194 117 63  194 117 63  202 133 78  214 148 86  210 155 97  213 158 106
213 158 106  218 165 108  218 165 108  218 165 108  218 165 108  215 171 128
223 169 124  223 169 124  223 169 124  223 169 124  223 169 124  223 169 124
232 165 122  231 160 111  225 162 107  225 162 107  225 175 108  225 175 108
218 165 108  224 179 123  163 104 56  73 27 7  65 32 46  65 32 46
61 49 77  75 59 99  75 59 99  75 59 99  61 49 77  61 49 77
61 49 77  75 59 99  134 120 180  110 100 142  74 54 47  227 183 166
253 228 204  169 153 133  152 115 94  152 115 94  169 153 133  249 232 211
153 127 124  65 32 46  134 120 180  110 100 142  75 59 99  61 49 77
61 49 77  61 49 77  75 59 99  61 49 77  61 49 77  61 49 77
65 32 46  74 54 47  69 36 25  185 132 113  245 205 166  232 191 150
232 203 157  232 203 157  232 203 157  232 203 157  233 193 157  233 193 157
233 193 157  232 188 141  225 162 107  225 161 94  225 161 94  225 161 94
225 161 94  225 161 94  225 161 94  234 169 103  234 169 103  225 161 94
214 148 86  202 133 78  207 128 64  203 116 64  203 116 64  203 116 64
203 116 64  203 116 64  203 116 64  203 116 64
203 116 64  203 116 64  207 128 64  207 128 64  203 116 64  194 117 63
194 117 63  202 133 78  214 148 86  210 155 97  210 155 97  210 155 97
213 158 106  213 158 106  213 158 106  213 158 106  213 158 106  213 158 106
213 158 106  213 158 106  218 165 108  225 162 107  213 158 106  225 150 100
214 148 86  214 148 86  209 139 75  211 137 84  214 148 86  214 148 86
214 148 86  210 155 97  189 150 99  87 32 19  96 63 76  153 127 124
110 100 142  134 120 180  134 120 180  134 120 180  110 100 142  77 63 127
96 63 76  65 32 46  61 49 77  96 63 76  96 63 76  240 207 184
240 207 184  134 94 74  134 94 74  196 161 137  240 198 177  245 211 192
227 183 166  74 54 47  96 63 76  61 49 77  65 32 46  61 49 77
75 59 99  110 100 142  110 100 142  110 100 142  110 100 142  110 100 142
96 63 76  70 46 26  114 75 47  241 197 168  233 193 157  235 197 150
235 197 150  235 197 150  233 193 157  233 193 157  233 193 157  232 191 150
239 189 150  239 189 150  225 162 107  225 161 94  225 161 94  225 161 94
225 161 94  225 161 94  225 161 94  225 161 94  225 161 94  234 169 103
225 161 94  214 148 86  202 133 78  203 116 64  203 116 64  203 116 64
203 116 64  203 116 64  201 116 55  201 116 55
203 116 64  194 117 63  194 117 63  194 117 63  189 115 58  194 117 63
202 133 78  214 148 86  211 137 84  214 148 86  210 155 97  210 155 97
210 155 97  210 155 97  210 155 97  213 158 106  213 158 106  213 158 106
210 155 97  210 155 97  213 158 106  210 155 97  211 137 84  202 133 78
209 139 75  211 137 84  209 139 75  209 139 75  209 139 75  209 139 75
209 139 75  225 150 100  169 112 78  73 27 7  196 161 137  237 237 239
125 121 217  127 133 226  127 133 226  127 133 226  127 133 226  102 101 181
77 63 127  61 49 77  61 49 77  65 32 46  169 153 133  254 217 202
245 211 192  213 174 145  185 132 113  185 132 113  251 209 192  240 207 184
254 217 202  169 153 133  65 32 46  65 32 46  75 59 99  77 63 127
110 100 142  125 121 217  125 121 217  127 133 226  125 121 217  172 170 234
237 237 239  109 93 73  82 47 21  223 187 146  233 193 157  232 191 150
232 191 150  232 191 150  232 191 150  232 191 150  232 188 141  232 188 141
232 191 150  244 187 141  236 175 114  225 161 94  219 159 89  225 161 94
219 159 89  219 159 89  219 159 89  219 159 89  219 159 89  225 161 94
225 161 94  219 159 89  211 137 84  201 127 63  189 115 58  194 117 63
189 115 58  192 105 54  192 105 54  192 105 54
192 105 54  192 105 54  192 105 54  186 104 51  189 115 58  202 133 78
211 137 84  202 133 78  202 133 78  211 137 84  211 137 84  211 137 84
210 155 97  189 150 99  189 150 99  210 155 97  189 150 99  210 155 97
210 155 97  210 155 97  214 148 86  211 137 84  202 133 78  202 133 78
213 132 75  213 132 75  213 132 75  209 139 75  209 139 75  209 139 75
209 139 75  214 148 86  161 91 44  73 28 22  225 202 210  225 202 210
125 121 217  129 126 232  129 126 232  102 101 181  102 101 181  134 120 180
75 59 99  75 59 99  96 63 76  96 63 76  254 217 202  246 212 198
245 206 192  213 174 145  134 94 74  69 36 25  185 132 113  240 198 177
246 208 197  227 183 166  74 54 47  114 104 108  75 59 99  77 63 127
102 101 181  125 121 217  127 133 226  127 133 226  125 121 217  125 121 217
237 237 239  169 153 133  56 20 5  196 161 137  233 193 157  223 187 146
232 188 141  232 188 141  232 188 141  232 188 141  232 188 141  223 182 134
232 188 141  232 188 141  236 175 114  219 159 89  225 161 94  225 161 94
219 159 89  225 156 82  225 156 82  214 148 86  225 156 82  225 156 82
225 161 94  225 161 94  219 146 86  201 127 63  189 115 58  186 104 51
192 105 54  192 105 54  192 105 54  192 105 54
186 104 51  186 104 51  183 96 48  186 104 51  202 133 78  211 137 84
202 133 78  202 133 78  202 133 78  202 133 78  202 133 78  202 133 78
211 137 84  211 137 84  211 137 84  211 137 84  211 137 84  214 148 86
211 137 84  210 155 97  202 133 78  201 127 63  207 128 64  207 128 64
207 128 64  207 128 64  207 128 64  207 128 64  207 128 64  207 128 64
213 132 75  211 137 84  111 49 45  86 40 34  237 237 239  172 170 234
125 121 217  127 133 226  125 121 217  77 63 127  77 63 127  77 63 127
75 59 99  110 100 142  110 100 142  75 59 99  114 104 108  227 183 166
196 161 137  86 40 34  114 104 108  169 153 133  74 54 47  185 132 113
169 153 133  96 63 76  77 63 127  110 100 142  75 59 99  75 59 99
110 100 142  77 63 127  102 101 181  125 121 217  127 133 226  125 121 217
237 237 239  186 177 183  56 20 5  152 115 94  235 197 150  223 182 134
232 188 141  223 182 134  223 182 134  223 182 134  223 182 134  223 182 134
223 182 134  232 188 141  236 175 114  214 148 86  214 148 86  219 159 89
225 156 82  225 156 82  219 146 86  219 146 86  218 139 75  214 148 86
219 159 89  219 159 89  225 147 96  214 148 86  189 115 58  183 96 48
186 104 51  186 104 51  183 96 48  186 104 51
186 104 51  183 96 48  183 96 48  194 117 63  202 133 78  202 133 78
202 133 78  202 133 78  202 133 78  202 133 78  202 133 78  202 133 78
202 133 78  202 133 78  202 133 78  202 133 78  202 133 78  202 133 78
211 137 84  211 137 84  201 127 63  194 117 63  201 127 63  203 116 64
207 128 64  207 128 64  207 128 64  207 128 64  207 128 64  207 128 64
207 128 64  202 133 78  93 40 21  109 93 73  237 237 239  172 170 234
125 121 217  127 133 226  125 121 217  77 63 127  75 59 99  75 59 99
61 49 77  110 100 142  134 120 180  110 100 142  75 59 99  96 63 76
82 37 31  134 94 74  243 237 221  239 228 204  134 94 74  69 36 25
96 63 76  114 104 108  134 120 180  110 100 142  75 59 99  61 49 77
75 59 99  77 63 127  77 63 127  125 121 217  127 133 226  125 121 217
237 237 239  239 228 204  70 46 26  134 94 74  215 171 128  224 179 123
223 169 124  223 182 134  223 182 134  215 171 128  224 179 123  223 182 134
223 182 134  223 182 134  225 175 108  214 148 86  214 148 86  214 148 86
219 146 86  219 146 86  218 139 75  219 146 86  218 139 75  214 148 86
209 139 75  214 148 86  219 146 86  219 146 86  209 139 75  186 104 51
183 96 48  186 104 51  183 96 48  183 96 48
183 96 48  183 96 48  183 96 48  194 117 63  202 133 78  194 117 63
202 133 78  202 133 78  202 133 78  202 133 78  202 133 78  202 133 78
202 133 78  202 133 78  202 133 78  202 133 78  202 133 78  202 133 78
202 133 78  202 133 78  194 117 63  194 117 63  203 116 64  201 116 55
201 116 55  203 116 64  201 116 55  201 127 63  201 127 63  201 127 63
201 127 63  194 117 63  82 29 16  114 104 108  237 237 239  143 144 183
125 121 217  127 133 226  134 120 180  75 59 99  77 63 127  110 100 142
75 59 99  75 59 99  110 100 142  134 120 180  134 120 180  75 59 99
74 54 47  74 54 47  225 202 210  225 202 210  65 32 46  61 49 77
110 100 142  143 144 183  110 100 142  110 100 142  61 49 77  77 63 127
110 100 142  75 59 99  77 63 127  125 121 217  127 133 226  125 121 217
225 202 210  237 237 239  74 54 47  114 75 47  213 158 106  223 169 124
223 169 124  223 169 124  223 169 124  224 179 123  224 179 123  224 179 123
223 169 124  223 169 124  225 162 107  214 148 86  214 148 86  214 148 86
214 148 86  219 146 86  218 139 75  218 139 75  218 139 75  218 139 75
209 139 75  209 139 75  214 148 86  219 146 86  214 148 86  201 127 63
183 96 48  183 96 48  183 96 48  183 96 48
183 96 48  183 96 48  186 104 51  189 115 58  194 117 63  194 117 63
194 117 63  194 117 63  194 117 63  194 117 63  202 133 78  202 133 78
202 133 78  202 133 78  202 133 78  202 133 78  202 133 78  202 133 78
202 133 78  201 127 63  189 115 58  194 117 63  201 116 55  201 116 55
201 116 55  201 116 55  201 116 55  201 127 63  203 116 64  203 116 64
207 128 64  189 115 58  73 27 7  153 127 124  237 237 239  143 144 183
125 121 217  127 133 226  102 101 181  77 63 127  125 121 217  110 100 142
77 63 127  75 59 99  75 59 99  110 100 142  77 63 127  77 63 127
96 63 76  57 27 21  153 127 124  169 153 133  57 27 21  96 63 76
77 63 127  77 63 127  77 63 127  61 49 77  110 100 142  110 100 142
102 101 181  102 101 181  75 59 99  125 121 217  127 133 226  125 121 217
225 202 210  237 237 239  74 54 47  111 49 45  189 150 99  210 155 97
232 165 122  223 169 124  223 169 124  223 169 124  218 165 108  218 165 108
218 165 108  225 162 107  214 148 86  209 139 75  214 148 86  211 137 84
218 139 75  218 139 75  218 139 75  218 139 75  209 139 75  209 139 75
209 139 75  209 139 75  209 139 75  211 137 84  209 139 75  219 146 86
203 116 64  183 96 48  183 96 48  183 96 48
183 96 48  183 96 48  186 104 51  186 104 51  189 115 58  194 117 63
189 115 58  194 117 63  194 117 63  194 117 63  194 117 63  194 117 63
194 117 63  194 117 63  202 133 78  202 133 78  202 133 78  202 133 78
202 133 78  194 117 63  189 115 58  194 112 51  194 112 51  194 112 51
201 116 55  201 116 55  194 112 51  201 116 55  201 116 55  201 116 55
201 127 63  189 115 58  73 27 7  153 127 124  237 237 239  143 144 183
125 121 217  125 121 217  77 63 127  134 120 180  127 133 226  125 121 217
127 133 226  125 121 217  77 63 127  61 49 77  75 59 99  96 63 76
74 54 47  74 54 47  74 54 47  74 54 47  65 32 46  74 54 47
75 59 99  75 59 99  75 59 99  110 100 142  127 133 226  125 121 217
125 121 217  127 133 226  77 63 127  110 100 142  127 133 226  125 121 217
225 202 210  237 237 239  114 75 47  111 49 45  202 133 78  202 133 78
225 150 100  225 162 107  218 165 108  218 165 108  213 158 106  218 165 108
213 158 106  214 148 86  209 139 75  209 139 75  209 139 75  209 139 75
213 132 75  213 132 75  213 132 75  213 132 75  213 132 75  201 127 63
207 128 64  209 139 75  201 127 63  202 133 78  202 133 78  211 137 84
211 137 84  194 117 63  183 96 48  183 96 48
183 96 48  183 96 48  183 96 48  186 104 51  189 115 58  189 115 58
189 115 58  194 117 63  194 117 63  194 117 63  194 117 63  194 117 63
194 117 63  194 117 63  202 133 78  202 133 78  202 133 78  202 133 78
202 133 78  189 115 58  186 104 51  194 112 51  194 112 51  194 112 51
194 112 51  194 112 51  194 112 51  194 112 51  194 112 51  201 116 55
194 117 63  189 115 58  73 27 7  152 115 94  237 237 239  143 144 183
125 121 217  102 101 181  77 63 127  127 133 226  129 126 232  129 126 232
129 126 232  125 121 217  77 63 127  110 100 142  143 144 183  237 237 239
96 63 76  96 63 76  74 54 47  74 54 47  65 32 46  186 177 183
237 237 239  134 120 180  110 100 142  102 101 181  127 133 226  127 133 226
127 133 226  127 133 226  134 120 180  77 63 127  127 133 226  125 121 217
225 202 210  237 237 239  114 75 47  93 40 21  202 133 78  202 133 78
202 133 78  214 148 86  225 150 100  210 155 97  210 155 97  210 155 97
214 148 86  202 133 78  213 132 75  209 139 75  213 132 75  213 132 75
207 128 64  207 128 64  207 128 64  207 128 64  207 128 64  207 128 64
201 127 63  207 128 64  207 128 64  201 127 63  213 132 75  207 128 64
213 132 75  213 132 75  186 104 51  161 91 44
183 96 48  183 96 48  183 96 48  183 96 48  183 96 48  186 104 51
189 115 58  189 115 58  189 115 58  194 117 63  194 117 63  194 117 63
194 117 63  194 117 63  194 117 63  194 117 63  202 133 78  194 117 63
194 117 63  189 115 58  192 105 54  192 105 54  191 105 47  194 112 51
194 112 51  194 112 51  194 112 51  194 112 51  194 112 51  194 112 51
194 112 51  189 115 58  93 40 21  109 93 73  237 237 239  172 170 234
125 121 217  125 121 217  125 121 217  129 126 232  129 126 232  129 126 232
129 126 232  125 121 217  102 101 181  134 120 180  172 170 234  237 237 239
75 59 99  96 63 76  96 63 76  61 49 77  61 49 77  186 177 183
237 237 239  143 144 183  102 101 181  102 101 181  129 126 232  129 126 232
129 126 232  127 133 226  127 133 226  125 121 217  129 126 232  125 121 217
237 237 239  243 237 221  86 40 34  114 75 47  202 133 78  201 127 63
201 127 63  201 127 63  201 127 63  202 133 78  202 133 78  202 133 78
201 127 63  207 128 64  207 128 64  207 128 64  207 128 64  207 128 64
207 128 64  207 128 64  207 128 64  207 128 64  201 127 63  213 132 75
201 127 63  201 127 63  207 128 64  201 127 63  201 127 63  207 128 64
201 127 63  209 139 75  201 127 63  183 96 48
183 96 48  183 96 48  183 96 48  183 96 48  161 91 44  161 91 44
189 115 58  189 115 58  189 115 58  189 115 58  189 115 58  189 115 58
194 117 63  194 117 63  194 117 63  194 117 63  194 117 63  194 117 63
194 117 63  186 104 51  186 104 51  186 104 51  191 105 47  191 105 47
191 105 47  191 105 47  191 105 47  191 105 47  194 112 51  194 112 51
194 112 51  189 115 58  119 40 20  111 49 45  237 237 239  225 202 210
125 121 217  129 126 232  129 126 232  129 126 232  129 126 232  129 126 232
129 126 232  129 126 232  129 126 232  125 121 217  172 170 234  237 237 239
75 59 99  75 59 99  75 59 99  61 49 77  61 49 77  143 144 183
237 237 239  143 144 183  125 121 217  127 133 226  129 126 232  129 126 232
129 126 232  129 126 232  129 126 232  129 126 232  127 133 226  143 144 183
237 237 239  240 211 193  73 27 7  161 91 44  202 133 78  194 117 63
201 127 63  201 127 63  201 127 63  201 127 63  201 127 63  201 127 63
203 116 64  201 127 63  203 116 64  201 127 63  201 127 63  201 127 63
207 128 64  207 128 64  207 128 64  201 127 63  207 128 64  201 116 55
201 127 63  201 127 63  201 127 63  201 127 63  201 116 55  201 116 55
201 127 63  201 127 63  201 127 63  194 117 63
183 96 48  183 96 48  183 96 48  183 96 48  161 91 44  161 91 44
183 96 48  186 104 51  189 115 58  189 115 58  189 115 58  189 115 58
189 115 58  189 115 58  194 117 63  194 117 63  194 117 63  194 117 63
192 105 54  186 104 51  186 104 51  192 105 54  192 105 54  191 105 47
191 105 47  191 105 47  191 105 47  191 105 47  191 105 47  191 105 47
194 112 51  194 117 63  114 75 47  73 27 7  225 198 173  237 237 239
125 121 217  129 126 232  129 126 232  129 126 232  129 126 232  129 126 232
129 126 232  129 126 232  129 126 232  125 121 217  237 237 239  237 237 239
75 59 99  77 63 127  75 59 99  61 49 77  61 49 77  153 127 124
237 237 239  143 144 183  125 121 217  127 133 226  129 126 232  129 126 232
129 126 232  129 126 232  129 126 232  127 133 226  125 121 217  172 170 234
237 237 239  169 153 133  73 27 7  163 104 56  201 127 63  194 112 51
201 116 55  201 116 55  201 116 55  201 116 55  201 116 55  201 116 55
201 116 55  201 116 55  201 116 55  201 116 55  201 116 55  201 116 55
201 116 55  201 116 55  201 116 55  201 116 55  194 117 63  194 117 63
194 117 63  194 117 63  201 116 55  201 116 55  201 116 55  194 112 51
189 115 58  194 117 63  194 117 63  194 117 63
183 96 48  183 96 48  161 91 44  161 91 44  161 91 44  161 91 44
183 96 48  183 96 48  186 104 51  186 104 51  189 115 58  189 115 58
189 115 58  189 115 58  189 115 58  194 117 63  189 115 58  189 115 58
186 104 51  186 104 51  186 104 51  191 105 47  186 104 51  186 104 51
186 104 51  192 105 54  191 105 47  192 105 54  191 105 47  191 105 47
191 105 47  189 115 58  163 104 56  73 27 7  152 115 94  237 237 239
172 170 234  125 121 217  129 126 232  129 126 232  129 126 232  129 126 232
129 126 232  129 126 232  127 133 226  127 133 226  237 237 239  225 202 210
61 49 77  77 63 127  75 59 99  61 49 77  75 59 99  75 59 99
237 237 239  172 170 234  125 121 217  127 133 226  127 133 226  127 133 226
129 126 232  129 126 232  129 126 232  127 133 226  134 120 180  225 202 210
237 237 239  109 93 73  87 32 19  189 115 58  194 117 63  194 112 51
194 112 51  194 112 51  194 112 51  201 116 55  201 116 55  201 116 55
201 116 55  201 116 55  194 112 51  201 116 55  201 116 55  194 112 51
201 116 55  194 112 51  201 116 55  201 116 55  201 116 55  201 116 55
201 116 55  194 112 51  194 112 51  194 112 51  194 112 51  194 112 51
192 105 54  189 115 58  189 115 58  189 115 58
183 96 48  161 91 44  161 91 44  161 91 44  161 91 44  161 91 44
161 91 44  161 91 44  161 91 44  183 96 48  186 104 51  186 104 51
186 104 51  186 104 51  186 104 51  189 115 58  186 104 51  186 104 51
183 96 48  183 96 48  186 104 51  183 96 48  186 104 51  186 104 51
186 104 51  191 105 47  191 105 47  191 105 47  191 105 47  191 105 47
191 105 47  192 105 54  189 115 58  119 40 20  66 37 10  225 202 210
237 237 239  143 144 183  127 133 226  129 126 232  127 133 226  127 133 226
127 133 226  127 133 226  125 121 217  172 170 234  237 237 239  153 127 124
61 49 77  110 100 142  75 59 99  61 49 77  75 59 99  61 49 77
225 202 210  237 237 239  127 133 226  125 121 217  127 133 226  127 133 226
129 126 232  129 126 232  129 126 232  125 121 217  172 170 234  237 237 239
186 177 183  57 27 21  114 75 47  189 115 58  186 104 51  194 112 51
191 105 47  191 105 47  191 105 47  192 105 54  192 105 54  192 105 54
192 105 54  192 105 54  192 105 54  194 112 51  192 105 54  194 112 51
192 105 54  194 112 51  192 105 54  192 105 54  192 105 54  192 105 54
192 105 54  192 105 54  192 105 54  186 104 51  186 104 51  186 104 51
186 104 51  186 104 51  186 104 51  189 115 58
161 91 44  161 91 44  161 91 44  161 91 44  161 91 44  161 91 44
161 91 44  161 91 44  161 91 44  161 91 44  161 91 44  183 96 48
186 104 51  186 104 51  186 104 51  183 96 48  183 96 48  183 96 48
183 96 48  183 96 48  191 105 47  183 96 48  183 96 48  186 104 51
186 104 51  186 104 51  191 105 47  191 105 47  191 105 47  191 105 47
191 105 47  186 104 51  189 115 58  166 113 61  76 40 10  96 63 76
237 237 239  237 237 239  125 121 217  129 126 232  127 133 226  125 121 217
127 133 226  125 121 217  172 170 234  237 237 239  237 237 239  96 63 76
77 63 127  110 100 142  75 59 99  61 49 77  114 104 108  61 49 77
143 144 183  237 237 239  172 170 234  127 133 226  127 133 226  127 133 226
129 126 232  129 126 232  129 126 232  127 133 226  237 237 239  225 202 210
74 54 47  82 47 21  163 104 56  189 115 58  192 105 54  191 105 47
186 104 51  186 104 51  192 105 54  192 105 54  192 105 54  192 105 54
192 105 54  192 105 54  186 104 51  191 105 47  191 105 47  191 105 47
186 104 51  186 104 51  186 104 51  186 104 51  186 104 51  186 104 51
186 104 51  186 104 51  186 104 51  186 104 51  186 104 51  186 104 51
186 104 51  186 104 51  186 104 51  186 104 51
